!!!!SEGMENT: pl-sa--154-a-iv-4--001-004_anonim--missa-sanctus.krn
!!!cenid: 17xx:1523
!!!COM: Anonim
!!!COM-rismID: pe30004985
!!!CDT:
!!!CNT:
!!!OPR: Missa
!!!OTL: Sanctus
!!!OMV: 004
!!!PDT: 1767
!!!AGN: Sacred; Mass
!!!YEC: Copyright 2022 Narodowy Instytut Fryderyka Chopina (https://polishscores.org)
!!!YEM: License CC-BY-4.0 (https://creativecommons.org/licenses/by/4.0)
!!!SMS-siglum: PL-SA
!!!SMS-shelfmark: 154/A IV 4
!!!SMS-shelfwork: 001-004 M
!!!SMS-variant: skany 1-24
!!!SMS-altvar: skany 25-43
!!!NIFC-rismSourceID: 1001035514
!!!NIFC-rismChildID: 1001035514
!!!NIFC-islandoraID: none
!!!URL-pdf-islandora:
!!!URL-scan: https://bc.bdsandomierz.pl/dlibra/publication/1540/edition/1508/content @EN{Scan in the Sandomierz Diocese Digital Library} @PL{Skany w portalu Cyfrowa Biblioteka Diecezjalna w Sandomierzu}
!!!IIIF:
!!!ONB-nifc: UWAGA: części Mszy: 1. Kyrie, 2. Gloria, 3. Patrem, 4. Sanctus, 5. Agnus. Uwaga: część Sanctus zawiera Benedictus
!!!AIN: 1 bass 2 clrno 1 organ 1 soprn 2 violn
!!!key: G
**kern	**fba	**kern	**dynam	**kern	**dynam	**kern	**text	**dynam	**kern	**text	**kern	**kern
*part7	*	*part6	*	*part5	*	*part4	*	*	*part3	*	*part2	*part1
*staff7	*	*staff6	*	*staff5	*	*staff4	*	*	*staff3	*	*staff2	*staff1
*I"Organo.	*	*I"Violino 2DO.	*	*I"Violino Primo	*	*I"Baſso	*	*	*I"Canto.	*	*I"Clarino 2do Ex	*I"Clarino 1mo ex
*I'org	*	*I'vl II	*	*I'vl I	*	*I'B	*	*	*I'S	*	*I'clno II	*I'clno I
*ICklav	*	*ICstr	*	*ICstr	*	*ICvox	*	*	*ICvox	*	*ICbras	*ICbras
*Iorgan	*	*Ivioln	*	*Ivioln	*	*Ibass	*	*	*Isoprn	*	*Iclrno	*Iclrno
*clefF4	*	*clefG2	*	*clefG2	*	*clefF4	*	*	*clefC1	*	*clefG2	*clefG2
*	*	*	*	*	*	*	*	*	*	*	*ITrd-1c-2	*ITrd-1c-2
*k[f#]	*	*k[f#]	*	*k[f#]	*	*k[f#]	*	*	*k[f#]	*	*k[f#]	*k[f#]
*G:	*	*G:	*	*G:	*	*G:	*	*	*G:	*	*G:	*G:
*M4/4	*	*yyM4/4	*	*M4/4	*	*M4/4	*	*	*M4/4	*	*M4/4	*M4/4
*met(C.)	*	*yymet(c)	*	*met(C.)	*	*met(C.)	*	*	*met(C.)	*	*met(c)	*met(C.)
=1	=1	=1	=1	=1	=1	=1	=1	=1	=1	=1	=1	=1
!	!	!	!	!LO:TX:t=P:all\right:problem	!	!	!	!	!	!	!	!LO:TX:a:B:t=Adagio
!	!	!	!	!	!	!LO:TX:t=P:all\right:problem	!	!	!LO:TX:t=P:all\right:problem	!	!	!LO:TX:t=P:all\right:problem
!LO:TX:t=P:problem= nieczytelne słowo	!	!LO:TX:B:t=Adagio	!	!LO:TX:B:t=Adagio	!	!LO:TX:t=P:problem= nieczytelne słowo	!	!	!LO:TX:B:t=Adagio	!	!	!
!	!	!	!	!	!	!	!	!	!	!	!LO:TX:B:t=Adagio	!
4G\	.	4b/	.	4dd\	.	4G\	Sanc-	.	4dd\	San-	4dd\	4gg\
4F#\	6	4a/	.	4dd\	.	4F#\	-tus	.	4dd\	-ctus	4ff#\	4aa\
4G\	.	8b/L	.	8dd\L	.	4G\	Do-	.	4b\	Do-	4gg\	4bb\
.	.	8cc/	.	8bb\	.	.	.	.	.	.	.	.
4D\	.	8f#/	.	8aa\	.	8D\	-mi-	.	8a\	-mi-	8r	8r
.	.	8b/J	.	8ff#\J	.	8D\	-n(us)	.	8a\	-n(us)	8ff#\	8aa\
=2	=2	=2	=2	=2	=2	=2	=2	=2	=2	=2	=2	=2
4E\	.	4b/	.	4gg\	.	4E\	De-	.	4g\	De-	4ee\	4gg\
4C\	.	8g/L	.	4ee\	.	4C/	-us	.	4ee\	-us	4ee\	4gg\
.	.	8a/J	.	.	.	.	.	.	.	.	.	.
4.D\	.	4.a/	.	4.ff#\	.	4.D/	ſab-	.	4.a\	Sab-	4.dd\	4.ff#\
8DD/	.	8a/	.	8ff#\	.	8D/	-ba-	.	8a\	-ba-	8dd\	8ff#\
=3	=3	=3	=3	=3	=3	=3	=3	=3	=3	=3	=3	=3
4GG/	.	4b\	.	4gg\	.	4GG/	-oth	.	4b\	-oth	4dd\	4gg\
4G\	.	4b\	.	4dd\	.	4G\	San-	.	4dd\	.	4gg\	4bb\
!	!	!	!	!	!	!	!	!	!	!	!	!
4F#\	6	4a\	.	4dd\	.	4F#\	.	.	2dd\	San-	4ff#\	4aa\
8G\L	.	8b\L	.	4dd\	.	8G\L	.	.	.	.	8gg\L	8bb\L
8F#\J	.	8a\J	.	.	.	8F#\J	.	.	.	.	8ff#\J	8aa\J
=4	=4	=4	=4	=4	=4	=4	=4	=4	=4	=4	=4	=4
4E\	6|	4g/	.	4cc#X\	.	4E\	-ctus	.	4cc#X\	-ctus	4ee\	4gg\
4A\	#	4f#/	.	4cc#\	.	4A\	.	.	4cc#\	Do-	4a/	4ee\
4F#\	.	4a/	.	4dd\	.	4F#\	Do-	.	4dd\	-mi-	4dd\	4ff#\
4G\	.	4b/	.	8ee\L	.	8G\	-mi-	.	8ee\L	-n(us)	8ee\L	8gg\L
.	.	.	.	8dd\J	.	8G\	-n(us)	.	8dd\J	.	8dd\J	8ff#\J
=5	=5	=5	=5	=5	=5	=5	=5	=5	=5	=5	=5	=5
4A\	.	4e/	.	4cc#X\	.	4A\	De-	.	4cc#X\	De-	4a/	4r
4D\	.	4f#/	.	2dd\	.	4D\	-us	.	4dd\	-us	4dd\	4ff#\
4.A\	.	2e/	.	.	.	4.A\	Sab-	.	4.dd\	Sab-	2a/	2ee\
.	.	.	.	4cc#\	.	.	.	.	.	.	.	.
8AA/	.	.	.	.	.	8AA/	-ba-	.	8cc#\	-ba-	.	.
=6	=6	=6	=6	=6	=6	=6	=6	=6	=6	=6	=6	=6
*k[f#c#]	*	*k[f#c#]	*	*k[f#c#]	*	*k[f#c#]	*	*	*k[f#c#]	*	*k[f#c#]	*k[f#c#]
*D:	*	*D:	*	*D:	*	*D:	*	*	*D:	*	*D:	*D:
*M3/4	*	*M3/4	*	*M3/4	*	*M3/4	*	*	*M3/4	*	*M3/4	*M3/4
!	!	!	!	!LO:TX:a:i:t=Solo Aira	!	!	!	!	!	!	!	!
!LO:TX:a:i:t=Solo	!	!	!	!	!	!LO:TX:a:i:t=Solo	!	!	!	!	!	!
!	!	!LO:TX:B:t=Vivace	!	!	!	!	!	!	!	!	!	!
4D/	.	8f#/L	.	8dd\L	.	4D/	-oth	.	4dd\	-oth.	4f#/	4dd\
.	.	8d/	.	8d/	.	.	.	.	.	.	.	.
4r	.	8f#/	.	8f#/	.	4r	.	.	4r	.	4r	4r
.	.	8a/	.	8a/J	.	.	.	.	.	.	.	.
!	!	!	!	!	!	!	!	!	!	!	!	!
8r	.	8dd/	.	8dd\L	.	4r	.	.	4r	.	4dd\	4ff#\
8d\	.	8ff#/J	.	8ff#\J	.	.	.	.	.	.	.	.
=7	=7	=7	=7	=7	=7	=7	=7	=7	=7	=7	=7	=7
!	!	!	!	!	!	!	!	!	!	!	!	!
!	!	!	!	!	!LO:DY:b:t=fort	!	!	!	!LO:TX:b:i:t=Tacet.	!	!	!
8c#\L	.	8ee\L	.	8ee\	f	2.r	.	.	2.ryy	.	4a/	4ee\
8A\	.	8cc#\	.	4aa\	.	.	.	.	.	.	.	.
8B\	.	8dd\	.	.	.	.	.	.	.	.	4r	8r
8A\	.	8cc#\	.	16gg\LL	.	.	.	.	.	.	.	8a/
.	.	.	.	16ff#\JJ	.	.	.	.	.	.	.	.
.	.	.	.	8qqaa/	.	.	.	.	.	.	.	.
8B\	.	8dd\	.	8gg\L	.	.	.	.	.	.	8r	4gg\
8c#\J	.	8ee\J	.	16ff#\L	.	.	.	.	.	.	8ee\	.
.	.	.	.	16ee\JJ	.	.	.	.	.	.	.	.
=8	=8	=8	=8	=8	=8	=8	=8	=8	=8	=8	=8	=8
4d\	.	4a/	.	16ff#\LL	.	2.r	.	.	2.ryy	.	4dd\	4ff#\
.	.	.	.	16dd\	.	.	.	.	.	.	.	.
.	.	.	.	16cc#X\	.	.	.	.	.	.	.	.
.	.	.	.	16dd\JJ	.	.	.	.	.	.	.	.
4d\	.	4ff#\	.	16bb\LL	.	.	.	.	.	.	4r	4r
.	.	.	.	16bb\	.	.	.	.	.	.	.	.
.	.	.	.	16aa\	.	.	.	.	.	.	.	.
.	.	.	.	16gg#X\JJ	.	.	.	.	.	.	.	.
!	!	!	!	!LO:TX:t=P:problem=mixed beam	!	!	!	!	!	!	!	!
4c#\	.	4ee\	.	8aa\L	.	.	.	.	.	.	4r	4r
.	.	.	.	8a/J	.	.	.	.	.	.	.	.
=9	=9	=9	=9	=9	=9	=9	=9	=9	=9	=9	=9	=9
4r	.	4r	.	16b\LL	.	2.r	.	.	2.ryy	.	2.r	2.r
.	.	.	.	16dd\	.	.	.	.	.	.	.	.
.	.	.	.	16ee\	.	.	.	.	.	.	.	.
.	.	.	.	16ff#\JJ	.	.	.	.	.	.	.	.
4B\	.	4dd\	.	16ggn\LL	.	.	.	.	.	.	.	.
.	.	.	.	16gg\	.	.	.	.	.	.	.	.
.	.	.	.	16ff#\	.	.	.	.	.	.	.	.
.	.	.	.	16ee#X\JJ	.	.	.	.	.	.	.	.
!	!	!	!	!LO:LB:g=original	!	!	!	!	!	!	!	!
!	!	!	!	!LO:TX:t=P:problem=mixed beam	!	!	!	!	!	!	!	!
4A\	6	4cc#\	.	8aa\L	.	.	.	.	.	.	.	.
.	.	.	.	8f#/J 8a	.	.	.	.	.	.	.	.
!	!	!LO:LB:g=original	!	!	!	!	!	!	!	!	!	!
=10	=10	=10	=10	=10	=10	=10	=10	=10	=10	=10	=10	=10
!	!	!	!	!	!	!	!	!	!	!	!LO:TX:a:t=2	!LO:TX:a:t=2
4r	.	4r	.	16g/LL 16b	.	2.r	.	.	2.ryy	.	2.r	2.r
.	.	.	.	16b/ 16dd	.	.	.	.	.	.	.	.
.	.	.	.	16cc#/ 16ee	.	.	.	.	.	.	.	.
.	.	.	.	16dd/JJ	.	.	.	.	.	.	.	.
4G\	.	4b\	.	16ee\LL	.	.	.	.	.	.	.	.
.	.	.	.	16ee\	.	.	.	.	.	.	.	.
.	.	.	.	16dd\	.	.	.	.	.	.	.	.
.	.	.	.	16cc#\JJ	.	.	.	.	.	.	.	.
!	!	!	!	!	!	!	!	!	!	!	!	!
4F#\	.	4a\	.	8dd\L	.	.	.	.	.	.	.	.
.	.	.	.	8f#/J	.	.	.	.	.	.	.	.
!	!	!	!	!	!	!	!	!	!	!	!LO:LB:g=original	!
=11	=11	=11	=11	=11	=11	=11	=11	=11	=11	=11	=11	=11
4G\	.	8g/L	.	8g/L	.	2.r	.	.	2.ryy	.	4ee\	4gg\
.	.	16b/L	.	16b/L	.	.	.	.	.	.	.	.
.	.	16g/JJ	.	16g/JJ	.	.	.	.	.	.	.	.
4E\	.	8e/L	.	8e/L	.	.	.	.	.	.	8r	8r
.	.	16g/L	.	16g/L	.	.	.	.	.	.	8ee\	8gg\
.	.	16e/JJ	.	16e/JJ	.	.	.	.	.	.	.	.
!	!	!	!	!	!	!	!	!	!	!	!	!LO:TX:t=P:problem=po nucie jeszcze wpisana mylnie ćwierćnuta d, skreślona
4A\	.	8a/L	.	8a/L	.	.	.	.	.	.	4a/	4ee\
.	.	8A/J	.	8A/J	.	.	.	.	.	.	.	.
!	!	!	!	!	!	!LO:LB:g=original	!	!	!	!	!	!LO:LB:g=original
=12	=12	=12	=12	=12	=12	=12	=12	=12	=12	=12	=12	=12
!LO:TX:t=P:problem= przed końcem systemu zapisana fala (custos nie oznaczający wysokości dźwięku w kolejnym systemie)	!	!	!	!	!	!	!	!	!	!	!	!
4D\	.	4d/	.	4d/	.	8r	.	.	2.ryy	.	4f#/	4dd\
.	.	.	.	.	.	8D\	ple-	.	.	.	.	.
!LO:LB:g=original	!	!	!	!	!	!	!	!	!	!	!	!
8r	.	4r	.	4r	.	8F#\	-ni	.	.	.	4r	4r
8D\L	.	.	.	.	.	8A\	ſu(n)t	.	.	.	.	.
8F#\	.	4r	.	4r	.	4d\	cae-	.	.	.	4r	4r
8D\J	.	.	.	.	.	.	.	.	.	.	.	.
=13	=13	=13	=13	=13	=13	=13	=13	=13	=13	=13	=13	=13
4A\	.	2.r	.	2.r	.	8c#\	-li	.	2.ryy	.	2.r	2.r
.	.	.	.	.	.	8A\	ple-	.	.	.	.	.
8r	.	.	.	.	.	8c#\	-ni	.	.	.	.	.
8AA/L	.	.	.	.	.	8e\	ſu(n)t	.	.	.	.	.
8BB/	.	.	.	.	.	4G\	cae-	.	.	.	.	.
8C#/J	.	.	.	.	.	.	.	.	.	.	.	.
=14	=14	=14	=14	=14	=14	=14	=14	=14	=14	=14	=14	=14
!	!	!LO:TX:a:t=2	!	!	!	!	!	!	!	!	!	!
8D\L	.	2.r	.	2.r	.	8F#\	-li	.	2.ryy	.	2.r	2.r
8G\	.	.	.	.	.	8E\	et	.	.	.	.	.
!	!	!	!	!	!	!LO:TX:t=P:problem=nad trylem łuk	!	!	!	!	!	!
8A\	.	.	.	.	.	2ET\	terra	.	.	.	.	.
8G\	.	.	.	.	.	.	.	.	.	.	.	.
8A\	.	.	.	.	.	.	.	.	.	.	.	.
8AA/J	.	.	.	.	.	.	.	.	.	.	.	.
=15	=15	=15	=15	=15	=15	=15	=15	=15	=15	=15	=15	=15
4D/	.	4r	.	4r	.	8C#\	glo-	.	2.ryy	.	2.r	2.r
.	.	.	.	.	.	16D\LL	.	.	.	.	.	.
.	.	.	.	.	.	16E\JJ	.	.	.	.	.	.
4r	.	4r	.	4r	.	8F#\L	.	.	.	.	.	.
.	.	.	.	.	.	16G#X\L	.	.	.	.	.	.
.	.	.	.	.	.	16A\JJ	.	.	.	.	.	.
!	!	!	!	!	!LO:DY:b:t=pia	!	!	!	!	!	!	!
4D/	.	4b\	.	4ff#\	p	8B\L	.	.	.	.	.	.
.	.	.	.	.	.	8A\J	.	.	.	.	.	.
=16	=16	=16	=16	=16	=16	=16	=16	=16	=16	=16	=16	=16
4E/	.	4g#X/	.	4b\	.	8G#X\L	.	.	2.ryy	.	2.r	2.r
.	.	.	.	.	.	16E\L	.	.	.	.	.	.
.	.	.	.	.	.	16F#\JJ	.	.	.	.	.	.
4r	.	4r	.	4r	.	8G#\L	.	.	.	.	.	.
.	.	.	.	.	.	16A\L	.	.	.	.	.	.
.	.	.	.	.	.	16B\JJ	.	.	.	.	.	.
4E/	.	4cc#\	.	4gg#X\	.	8c#\L	.	.	.	.	.	.
.	.	.	.	.	.	8B\J	.	.	.	.	.	.
=17	=17	=17	=17	=17	=17	=17	=17	=17	=17	=17	=17	=17
4F#\	.	4a/	.	4cc#\	.	8A\L	.	.	2.ryy	.	2.r	2.r
.	.	.	.	.	.	16F#\L	.	.	.	.	.	.
.	.	.	.	.	.	16G#X\JJ	.	.	.	.	.	.
4r	.	4r	.	4r	.	8A\L	.	.	.	.	.	.
.	.	.	.	.	.	16B\L	.	.	.	.	.	.
.	.	.	.	.	.	16c#\JJ	.	.	.	.	.	.
4F#\	.	4dd\	.	4aa\	.	8d\L	.	.	.	.	.	.
.	.	.	.	.	.	8c#\J	.	.	.	.	.	.
!	!	!	!	!	!	!LO:LB:g=original	!	!	!	!	!	!
=18	=18	=18	=18	=18	=18	=18	=18	=18	=18	=18	=18	=18
4G#X\	.	2e/	.	2e/	.	8B\L	.	.	2.ryy	.	2.r	2.r
.	.	.	.	.	.	8A\	.	.	.	.	.	.
4r	.	.	.	.	.	8G#X\	.	.	.	.	.	.
.	.	.	.	.	.	8F#\	.	.	.	.	.	.
4G#\	.	4r	.	4r	.	8E\	.	.	.	.	.	.
.	.	.	.	.	.	8D\J	.	.	.	.	.	.
=19	=19	=19	=19	=19	=19	=19	=19	=19	=19	=19	=19	=19
8A\L	.	2.r	.	2.r	.	8C#/	-ri-	.	2.ryy	.	2.r	2.r
8D\J	.	.	.	.	.	8D/	-a	.	.	.	.	.
!	!	!	!	!	!	!LO:TX:t=P:problem=nad trylem łuk	!	!	!	!	!	!
4E\	#	.	.	.	.	2ET\	tu-	.	.	.	.	.
4EE/	.	.	.	.	.	.	.	.	.	.	.	.
=20	=20	=20	=20	=20	=20	=20	=20	=20	=20	=20	=20	=20
!	!	!LO:TX:a:t=1	!	!	!	!	!	!	!	!	!	!
4AA/	.	8r	.	8r	.	4AA/	-a	.	2.ryy	.	4a/	4a/
.	.	8A/L	.	8A/L	.	.	.	.	.	.	.	.
4r	.	8c#/	.	8c#/	.	4r	.	.	.	.	4r	4r
.	.	8e/	.	8e/	.	.	.	.	.	.	.	.
8r	.	8a/	.	8a/	.	4r	.	.	.	.	8r	8r
8A\	.	8cc#/J	.	8cc#/J	.	.	.	.	.	.	8ff#\	8aa\
=21	=21	=21	=21	=21	=21	=21	=21	=21	=21	=21	=21	=21
8G\L	.	8b/L	.	8b\	.	2.r	.	.	2.ryy	.	8ee\L	8gg#X\L
8E\	.	8a#X/	.	4ee\	.	.	.	.	.	.	16ee\L	16ee\L
.	.	.	.	.	.	.	.	.	.	.	16ee\JJ	16ee\JJ
8F#\	.	8a#/	.	.	.	.	.	.	.	.	8ee\L	8ee\L
8G\	.	8g/	.	16dd\LL	.	.	.	.	.	.	8ee\	8ee\
.	.	.	.	16cc#\JJ	.	.	.	.	.	.	.	.
.	.	.	.	8qee/	.	.	.	.	.	.	.	.
8F#\	.	8a#/	.	8dd\L	.	.	.	.	.	.	8ee\	8ee\
8G\J	.	8b/J	.	16cc#\L	.	.	.	.	.	.	8ee\J	8ee\J
.	.	.	.	16b\JJ	.	.	.	.	.	.	.	.
=22	=22	=22	=22	=22	=22	=22	=22	=22	=22	=22	=22	=22
4A\	.	4e/	.	16cc#/LL	.	2.r	.	.	2.ryy	.	4ee\	4ee\
.	.	.	.	16a/	.	.	.	.	.	.	.	.
.	.	.	.	16g#X/	.	.	.	.	.	.	.	.
.	.	.	.	16a/JJ	.	.	.	.	.	.	.	.
4A\	6	4cc#\	.	16ff#\LL	.	.	.	.	.	.	4r	4r
.	.	.	.	16ff#\	.	.	.	.	.	.	.	.
.	.	.	.	16ee\	.	.	.	.	.	.	.	.
.	.	.	.	16dd\JJ	.	.	.	.	.	.	.	.
!	!	!LO:TX:b:i:t=verte cito.	!	!	!	!	!	!	!	!	!	!
4G#X\	6	4b\	.	8ee\L	.	.	.	.	.	.	4r	4r
.	.	.	.	8e/J	.	.	.	.	.	.	.	.
!	!	!LO:LB:g=original	!	!LO:LB:g=original	!	!	!	!	!	!	!	!
=23	=23	=23	=23	=23	=23	=23	=23	=23	=23	=23	=23	=23
4r	.	4r	.	16f#/LL	.	2.r	.	.	2.ryy	.	2.r	2.r
.	.	.	.	16a/	.	.	.	.	.	.	.	.
.	.	.	.	16b/	.	.	.	.	.	.	.	.
.	.	.	.	16cc#/JJ	.	.	.	.	.	.	.	.
4F#\	6	4a/	.	16dd\LL	.	.	.	.	.	.	.	.
.	.	.	.	16dd\	.	.	.	.	.	.	.	.
.	.	.	.	16cc#\	.	.	.	.	.	.	.	.
.	.	.	.	16b\JJ	.	.	.	.	.	.	.	.
!	!	!	!	!LO:TX:t=P:problem=mixed beam	!	!	!	!	!	!	!	!
4E\	6|	4g#X/	.	8cc#\L	.	.	.	.	.	.	.	.
.	.	.	.	8c#/J	.	.	.	.	.	.	.	.
=24	=24	=24	=24	=24	=24	=24	=24	=24	=24	=24	=24	=24
!	!	!	!	!	!	!	!	!	!	!	!LO:TX:a:t=2	!
4r	.	4r	.	16d/LL	.	2.r	.	.	2.ryy	.	2.r	2.r
.	.	.	.	16f#/	.	.	.	.	.	.	.	.
.	.	.	.	16g#X/	.	.	.	.	.	.	.	.
.	.	.	.	16a/JJ	.	.	.	.	.	.	.	.
4D/	6	4f#/	.	16b/LL	.	.	.	.	.	.	.	.
.	.	.	.	16b/	.	.	.	.	.	.	.	.
.	.	.	.	16a/	.	.	.	.	.	.	.	.
.	.	.	.	16g#/JJ	.	.	.	.	.	.	.	.
!	!	!LO:TX:t=P:problem=wysokość nuty niejasna	!	!	!	!	!	!	!	!	!	!
!	!	!LO:TX:b:t=e	!	!	!	!	!	!	!	!	!	!
4C#/	6	4e/ 4g	.	8a/L	.	.	.	.	.	.	.	.
.	.	.	.	8c#/J	.	.	.	.	.	.	.	.
=25	=25	=25	=25	=25	=25	=25	=25	=25	=25	=25	=25	=25
4D/	.	8d/L	.	8d/L	.	2.r	.	.	2.ryy	.	8r	8r
.	.	16f#/L	.	16f#/L	.	.	.	.	.	.	8ff#\	8aa\
.	.	16d/JJ	.	16d/JJ	.	.	.	.	.	.	.	.
4BB/	.	8B/L	.	8B/L	.	.	.	.	.	.	4ee\	4aa\
.	.	16d/L	.	16d/L	.	.	.	.	.	.	.	.
.	.	16B/JJ	.	16B/JJ	.	.	.	.	.	.	.	.
4E/	4	8e/L	.	8e/L	.	.	.	.	.	.	4ee\	4gg#X\
.	.	8e/J	.	8e/J	.	.	.	.	.	.	.	.
=26	=26	=26	=26	=26	=26	=26	=26	=26	=26	=26	=26	=26
4AA/	.	4A/	.	4A/	.	8r	.	.	2.ryy	.	4ee\	4aa\
.	.	.	.	.	.	8AA/	Ple-	.	.	.	.	.
8r	.	8r	.	8r	.	8C#/	-ni	.	.	.	4r	4r
!	!	!	!LO:DY:a	!	!	!	!	!	!	!	!	!
!	!	!	!LO:DY:t=pia	!	!LO:DY:b:t=pia	!	!	!	!	!	!	!
8AA/L	.	8cc#\L	p	8ee\L	p	8E/	ſunt	.	.	.	.	.
8C#/	.	8cc#\	.	8ee\	.	4A\	cae-	.	.	.	4r	4r
8AA/J	.	8cc#\J	.	8ee\J	.	.	.	.	.	.	.	.
!LO:LB:g=original	!	!	!	!	!	!	!	!	!	!	!	!
=27	=27	=27	=27	=27	=27	=27	=27	=27	=27	=27	=27	=27
4E\	#	4b\	.	4ee\	.	8G#X\	-li	.	2.ryy	.	2.r	2.r
.	.	.	.	.	.	8E\	ple-	.	.	.	.	.
8r	.	8r	.	8r	.	8G#\	-ni	.	.	.	.	.
8E\L	.	8b\L	.	8ee\L	.	8B\	ſunt	.	.	.	.	.
8G#X\	.	8b\	.	8ee\	.	4d\	cae-	.	.	.	.	.
8E\J	.	8b\J	.	8ee\J	.	.	.	.	.	.	.	.
=28	=28	=28	=28	=28	=28	=28	=28	=28	=28	=28	=28	=28
.	.	.	.	8qff#/	.	.	.	.	.	.	.	.
4A\	.	4e/	.	8ee\L	.	8c#\	-li	.	2.ryy	.	2.r	2.r
.	.	.	.	16dd\L	.	8B\	et	.	.	.	.	.
.	.	.	.	16cc#\JJ	.	.	.	.	.	.	.	.
4D\	.	4f#/	.	2bT/	.	2B\	ter-	.	.	.	.	.
4E\	.	4g#X/	.	.	.	.	.	.	.	.	.	.
=29	=29	=29	=29	=29	=29	=29	=29	=29	=29	=29	=29	=29
4AA/	n	4a/	.	4a/	.	8A\	-ra	.	2.ryy	.	2.r	2.r
.	.	.	.	.	.	8A\	glo-	.	.	.	.	.
4BB/	6	4r	.	4r	.	8A\L	.	.	.	.	.	.
.	.	.	.	.	.	16B\L	.	.	.	.	.	.
.	.	.	.	.	.	16A\JJ	.	.	.	.	.	.
!	!	!	!	!	!	!LO:LB:g=original	!	!	!	!	!	!
!	!	!	!	!	!	!LO:N:vis=4	!	!	!	!	!	!
4C#/	.	4r	.	4r	.	8Gn\	.	.	.	.	.	.
!	!	!	!	!	!	!LO:N:vis=8	!	!	!	!	!	!
.	.	.	.	.	.	16A\LL	.	.	.	.	.	.
!	!	!	!	!	!	!LO:N:vis=8	!	!	!	!	!	!
.	.	.	.	.	.	16G\JJ	.	.	.	.	.	.
=30	=30	=30	=30	=30	=30	=30	=30	=30	=30	=30	=30	=30
4D\	.	8r	.	8r	.	8.F#\	-ri-	.	2.ryy	.	4dd\	4ff#\
!	!	!	!LO:DY:b:t=fort	!	!	!	!	!	!	!	!	!
.	.	8d/L	f	8d/L	.	.	.	.	.	.	.	.
.	.	.	.	.	.	16E\	-a	.	.	.	.	.
4r	.	8f#/	.	8f#/	.	4D\	.	.	.	.	8r	8r
!	!	!	!	!	!LO:DY:b:t=for	!	!	!	!	!	!	!
.	.	8a/	.	8a/	f	.	.	.	.	.	8dd\	8ff#\
8r	.	8dd/	.	8dd/	.	4r	.	.	.	.	4dd\	4ff#\
8d\	.	8ff#/J	.	8ff#/J	.	.	.	.	.	.	.	.
=31	=31	=31	=31	=31	=31	=31	=31	=31	=31	=31	=31	=31
8c#\L	.	8ee\L	.	8ee\	.	2.r	.	.	2.ryy	.	4b/	4ee\
8B\	.	8dd\	.	4aa\	.	.	.	.	.	.	.	.
8c#\	.	8ee\	.	.	.	.	.	.	.	.	8r	8r
8A\	.	8cc#\	.	16ggn\LL	.	.	.	.	.	.	8ff#\	8aa\
.	.	.	.	16ff#\JJ	.	.	.	.	.	.	.	.
8B\	.	8dd\	.	8gg\L	.	.	.	.	.	.	8ee\L	8gg\L
8c#\J	.	8ee\J	.	16ff#\L	.	.	.	.	.	.	16dd\L	16ff#\L
.	.	.	.	16ee\JJ	.	.	.	.	.	.	16a\JJ	16ee\JJ
=32	=32	=32	=32	=32	=32	=32	=32	=32	=32	=32	=32	=32
4d\	.	4a/	.	4ff#\	.	8r	.	.	2.ryy	.	4dd\	4ff#\
.	.	.	.	.	.	8D\	Ple-	.	.	.	.	.
8r	.	4r	.	4d/	.	8F#\	-ni	.	.	.	4r	4r
8D\L	.	.	.	.	.	8A\	ſunt	.	.	.	.	.
8F#\	.	4r	.	4r	.	4d\	cae-	.	.	.	4r	4r
8D\J	.	.	.	.	.	.	.	.	.	.	.	.
!	!	!	!	!LO:LB:g=original	!	!	!	!	!	!	!	!
=33	=33	=33	=33	=33	=33	=33	=33	=33	=33	=33	=33	=33
4A\	.	2.r	.	2.r	.	8c#\	-li	.	2.ryy	.	2.r	2.r
.	.	.	.	.	.	8A\	.	.	.	.	.	.
8r	.	.	.	.	.	8c#\	.	.	.	.	.	.
8AA/L	.	.	.	.	.	8e\	.	.	.	.	.	.
8BB/	.	.	.	.	.	4G\	cae-	.	.	.	.	.
8C#/J	.	.	.	.	.	.	.	.	.	.	.	.
=34	=34	=34	=34	=34	=34	=34	=34	=34	=34	=34	=34	=34
!	!	!LO:TX:a:t=2	!	!LO:TX:a:t=2	!	!	!	!	!	!	!	!
8D\L	.	2.r	.	2.r	.	8F#\	-li	.	2.ryy	.	2.r	2.r
!LO:TX:t=P:problem=wysokość nuty niejasna	!	!	!	!	!	!	!	!	!	!	!	!
8G\	.	.	.	.	.	8E\	et	.	.	.	.	.
!	!	!	!	!	!	!LO:TX:t=P:problem=nad trylem łuk	!	!	!	!	!	!
8A\	.	.	.	.	.	2ET\	ter-	.	.	.	.	.
8G\	.	.	.	.	.	.	.	.	.	.	.	.
8A\	.	.	.	.	.	.	.	.	.	.	.	.
8AA/J	.	.	.	.	.	.	.	.	.	.	.	.
!	!	!LO:LB:g=original	!	!	!	!	!	!	!	!	!	!
=35	=35	=35	=35	=35	=35	=35	=35	=35	=35	=35	=35	=35
4D\	.	4d/	.	4d/	.	8D\	-ra	.	2.ryy	.	2.r	2.r
.	.	.	.	.	.	8D\	glo-	.	.	.	.	.
!	!	!	!	!	!LO:DY:a:t=pia	!	!	!	!	!	!	!
4E\	2	4e/	.	4e/	p	8d\L	.	.	.	.	.	.
.	.	.	.	.	.	16c#\L	.	.	.	.	.	.
.	.	.	.	.	.	16B\JJ	.	.	.	.	.	.
4F#\	6 n	4f#/	.	4f#/	.	8c#\L	.	.	.	.	.	.
.	.	.	.	.	.	16B\L	.	.	.	.	.	.
.	.	.	.	.	.	16A\JJ	.	.	.	.	.	.
=36	=36	=36	=36	=36	=36	=36	=36	=36	=36	=36	=36	=36
4G\	.	4g/	.	4g/	.	8B\L	.	.	2.ryy	.	2.r	2.r
.	.	.	.	.	.	16A\L	.	.	.	.	.	.
.	.	.	.	.	.	16G\JJ	.	.	.	.	.	.
4F#\	.	4f#/	.	4f#/	.	8A\L	.	.	.	.	.	.
.	.	.	.	.	.	16G\L	.	.	.	.	.	.
.	.	.	.	.	.	16F#\JJ	.	.	.	.	.	.
4E\	.	4e/	.	4e/	.	8G\L	.	.	.	.	.	.
.	.	.	.	.	.	16F#\L	.	.	.	.	.	.
.	.	.	.	.	.	16E\JJ	.	.	.	.	.	.
!	!	!	!	!	!	!LO:LB:g=original	!	!	!	!	!	!
=37	=37	=37	=37	=37	=37	=37	=37	=37	=37	=37	=37	=37
8D\L	.	8d/L	.	8d/L	.	(8F#\L	.	.	2.ryy	.	2.r	2.r
8C#X\	.	8c#/	.	8c#X/	.	8C#\)	.	.	.	.	.	.
8D\	.	8d/	.	8d/	.	8D\	.	.	.	.	.	.
8E\	.	8e/	.	8e/	.	8E`\	.	.	.	.	.	.
8F#\	.	8f#/	.	8f#/	.	8F#`\	.	.	.	.	.	.
8G#X\J	.	8g#X/J	.	8g#X/J	.	8G#X`\J	.	.	.	.	.	.
=38	=38	=38	=38	=38	=38	=38	=38	=38	=38	=38	=38	=38
4A\	.	4a/	.	4a/	.	4A\	-ria	.	2.ryy	.	2.r	2.r
8AA/L	.	4A/	.	4A/	.	8AA/	glo-	.	.	.	.	.
8AA/	.	.	.	.	.	8A\L	.	.	.	.	.	.
8BB/	.	4r	.	4r	.	8Gn\	.	.	.	.	.	.
8C#/J	.	.	.	.	.	8A\J	.	.	.	.	.	.
=39	=39	=39	=39	=39	=39	=39	=39	=39	=39	=39	=39	=39
8D\L	.	2.r	.	2.r	.	8F#\L	.	.	2.ryy	.	2.r	2.r
8E\	.	.	.	.	.	8C#\	.	.	.	.	.	.
8F#\	.	.	.	.	.	8D\	.	.	.	.	.	.
8D\	.	.	.	.	.	8d\	.	.	.	.	.	.
8E\	.	.	.	.	.	8c#\	.	.	.	.	.	.
8F#\J	.	.	.	.	.	8d\J	.	.	.	.	.	.
=40	=40	=40	=40	=40	=40	=40	=40	=40	=40	=40	=40	=40
!	!	!LO:TX:a:t=2	!	!LO:TX:a:t=2	!	!LO:TX:b:i:t=Osanna ut supra	!	!LO:DY:a	!	!	!	!
8G\L	.	2.r	.	2.r	.	8B\L	.	p	2.ryy	.	2.r	2.r
8E\	.	.	.	.	.	8G\J	-ria	.	.	.	.	.
8F#\	.	.	.	.	.	8F#\	tu-	.	.	.	.	.
8G\	.	.	.	.	.	8E\	.	.	.	.	.	.
!	!	!	!	!	!	!LO:TX:t=P:problem=nad trylem łuk	!	!	!	!	!	!
8A\	.	.	.	.	.	4ET\	.	.	.	.	.	.
8AA/J	.	.	.	.	.	.	.	.	.	.	.	.
!LO:LB:g=original	!	!	!	!	!	!	!	!	!	!	!LO:LB:g=original	!LO:LB:g=original
=41	=41	=41	=41	=41	=41	=41	=41	=41	=41	=41	=41	=41
4D/	.	4r	.	8r	.	4D\	-a	.	2.ryy	.	4dd\	4ff#\
!	!	!	!	!	!LO:DY:b:t=for	!	!	!	!	!	!	!
.	.	.	.	8dd\	f	.	.	.	.	.	.	.
4d\	.	4ff#\	.	16bb\LL	.	4r	.	.	.	.	4r	4r
.	.	.	.	16bb\	.	.	.	.	.	.	.	.
.	.	.	.	16aa\	.	.	.	.	.	.	.	.
.	.	.	.	16gg#X\JJ	.	.	.	.	.	.	.	.
!	!	!	!	!LO:TX:t=P:problem=mixed beam	!	!	!	!	!	!	!	!
4c#\	.	4ee\	.	8aa\L	.	4r	.	.	.	.	8r	8r
.	.	.	.	8a/J	.	.	.	.	.	.	8a/	16a/LL
.	.	.	.	.	.	.	.	.	.	.	.	16a/JJ
=42	=42	=42	=42	=42	=42	=42	=42	=42	=42	=42	=42	=42
4r	.	4r	.	16b\LL	.	2.r	.	.	2.ryy	.	4f#/	4f#/
.	.	.	.	16dd\	.	.	.	.	.	.	.	.
.	.	.	.	16ee\	.	.	.	.	.	.	.	.
.	.	.	.	16ff#\JJ	.	.	.	.	.	.	.	.
4B\	.	4dd\	.	16gg\LL	.	.	.	.	.	.	4r	4r
.	.	.	.	(16gg\	.	.	.	.	.	.	.	.
.	.	.	.	16ff#\)	.	.	.	.	.	.	.	.
.	.	.	.	16ee#X\JJ	.	.	.	.	.	.	.	.
!	!	!	!	!	!	!	!	!	!	!	!	!
4A\	6	4cc#\	.	8ff#\L	.	.	.	.	.	.	8r	8r
.	.	.	.	8f#/J	.	.	.	.	.	.	8f#/	8f#/
=43	=43	=43	=43	=43	=43	=43	=43	=43	=43	=43	=43	=43
4r	.	4r	.	16g/LL	.	2.r	.	.	2.ryy	.	4d/	4d/
.	.	.	.	16b/	.	.	.	.	.	.	.	.
.	.	.	.	16cc#/	.	.	.	.	.	.	.	.
.	.	.	.	16dd/JJ	.	.	.	.	.	.	.	.
4G\	.	4b\	.	16ee\LL	.	.	.	.	.	.	4r	4r
.	.	.	.	16ee\	.	.	.	.	.	.	.	.
.	.	.	.	16dd\	.	.	.	.	.	.	.	.
.	.	.	.	16cc#\JJ	.	.	.	.	.	.	.	.
!	!	!	!	!	!	!	!	!	!	!	!	!
4F#\	.	4a\	.	8dd\L	.	.	.	.	.	.	4r	4r
.	.	.	.	8f#/J	.	.	.	.	.	.	.	.
=44	=44	=44	=44	=44	=44	=44	=44	=44	=44	=44	=44	=44
4G\	.	8g/L	.	8g/L	.	2.r	.	.	2.ryy	.	4ee\	4gg\
.	.	16b/L	.	16b/L	.	.	.	.	.	.	.	.
.	.	16g/JJ	.	16g/JJ	.	.	.	.	.	.	.	.
4E\	.	8e/L	.	8e/L	.	.	.	.	.	.	4.a/	4.ee\
.	.	16g/L	.	16g/L	.	.	.	.	.	.	.	.
.	.	16e/JJ	.	16e/JJ	.	.	.	.	.	.	.	.
4A\	.	8a/L	.	8a/L	.	.	.	.	.	.	.	.
.	.	8A/J	.	8A/J	.	.	.	.	.	.	8b/	8ee\
=45	=45	=45	=45	=45	=45	=45	=45	=45	=45	=45	=45	=45
4D/	.	2d/	.	4d/	.	2.r	.	.	2.ryy	.	4f#/	4dd\
4r	.	.	.	4r	.	.	.	.	.	.	4r	4r
4r	.	4r	.	4r	.	.	.	.	.	.	4r	4r
!	!	!LO:LB:g=original	!	!LO:LB:g=original	!	!LO:LB:g=original	!	!	!LO:LB:g=original	!	!	!
!	!	!LO:TX:a:i:t=Osanna	!	!	!	!	!	!	!	!	!	!
=46||	=46||	=46||	=46||	=46||	=46||	=46||	=46||	=46||	=46||	=46||	=46||	=46||
*k[f#]	*	*k[f#]	*	*k[f#]	*	*k[f#]	*	*	*k[f#]	*	*k[f#]	*k[f#]
*G:	*	*G:	*	*G:	*	*G:	*	*	*G:	*	*G:	*G:
*M4/4	*	*M4/4	*	*M4/4	*	*M4/4	*	*	*M4/4	*	*M4/4	*M4/4
*met(C.)	*	*met(C.)	*	*met(C.)	*	*met(C.)	*	*	*met(C.)	*	*met(C|)	*met(C.)
!LO:TX:b:t=Osanna	!	!	!	!	!	!	!	!	!	!	!	!LO:TX:t=P:problem=we wszystkich głosach brak zmiany tonacji
!	!	!LO:TX:a:i:t=tut	!	!LO:TX:a:i:t=Osanna	!	!	!	!	!	!	!	!LO:TX:b:i:t=Osanna
8G\	.	8b\	.	8g/	.	8G\	O-	.	8g\	O-	8r	8r
=47	=47	=47	=47	=47	=47	=47	=47	=47	=47	=47	=47	=47
!LO:TX:t=tuti	!	!	!	!	!	!	!	!	!	!	!LO:TX:b:i:t=Osanna	!
8F#\L	.	8a/L	.	8dd\L	.	8F#\	-ſan-	.	8dd\	-ſan-	8r	8r
8D\	.	8f#/	.	8dd\	.	8D\	-na	.	8dd\	-na	8dd\L	8dd\L
8E\	.	8g/	.	8dd\	.	8E\	in	.	8dd\	in	8dd\	8dd\
8F#\J	.	8a/J	.	8dd\J	.	8F#\	ex-	.	8dd\	ex-	8dd\J	8dd\J
*	*	*	*	*Xtuplet	*	*	*	*	*	*	*	*
4G\	.	8b/L	.	(24dd\LL	.	4G\	-cel-	.	4b\	-cel-	4dd\	4dd\
.	.	.	.	24ee\)	.	.	.	.	.	.	.	.
.	.	.	.	24ff#\JJ	.	.	.	.	.	.	.	.
.	.	8g/	.	(24gg\LL	.	.	.	.	.	.	.	.
.	.	.	.	24aa\)	.	.	.	.	.	.	.	.
.	.	.	.	24bb\JJ	.	.	.	.	.	.	.	.
8G\L	.	8d/	.	8bb\L	.	8G\	-sis	.	8g\	-sis	4r	4r
8G\J	.	8b/J	.	8dd\J	.	8G\	o-	.	8dd\	o-	.	.
=48	=48	=48	=48	=48	=48	=48	=48	=48	=48	=48	=48	=48
*	*	*	*	*	*	*	*ij	*	*	*	*	*
8G\L	.	8b/L	.	8dd\L	.	8G\	-san-	.	8dd\	-ſan-	4dd\	8gg\L
8A\	.	8f#/	.	8dd\J	.	8A\	-na	.	8dd\	-na	.	8ff#\
8B\	.	8g/	.	16dd\LL	.	8B\	in	.	8dd\	in	8r	8gg\
.	.	.	.	16ee\	.	.	.	.	.	.	.	.
8G\J	.	8b/J	.	16ff#\	.	8G\	ex-	.	8gg\	ex-	8dd\	8gg\J
.	.	.	.	16gg\JJ	.	.	.	.	.	.	.	.
!	!	!	!	!LO:TX:t=P:problem=mixed beam	!	!	!	!	!	!	!	!
4c\	.	4g/	.	8ee\L	.	4c\	-cel-	.	4ee\	-cel-	4ee\	4gg\
.	.	.	.	8c/	.	.	.	.	.	.	.	.
8c\L	.	8g/L	.	8c/	.	8c\	-sis	.	8ee\	-sis	8r	8r
*	*	*	*	*	*	*	*Xij	*	*	*	*	*
8c\J	.	8g/J	.	8ee\J	.	8c\	o-	.	8ee\	o-	8ee\	8gg\
=49	=49	=49	=49	=49	=49	=49	=49	=49	=49	=49	=49	=49
8A\L	.	8dd\L	.	8ccc\L	.	8A\	-ſan-	.	8ff#\	-ſan-	8dd\L	8ff#\L
8G\	.	8dd\	.	8bb\J	.	8G\	-na	.	8gg\	-na	8ee\J	8gg\J
8F#\	.	8dd\	.	8aa\L	.	8F#\	in	.	8cc\	in	8ff#\L	8aa\L
8G\J	.	8dd\J	.	16bb\L	.	8G\	ex-	.	8b\	ex-	16gg\L	16bb\L
.	.	.	.	16aa\JJ	.	.	.	.	.	.	16ee\JJ	16gg\JJ
4d\	.	8f#/L	.	16aa\LL	.	4D\	-cel-	.	4a\	-cel-	4gg\	16aa\LL
.	.	.	.	16gg\	.	.	.	.	.	.	.	16gg\
.	.	8f#/	.	16ff#\	.	.	.	.	.	.	.	16ff#\
.	.	.	.	16ee\JJ	.	.	.	.	.	.	.	16ee\JJ
8d\L	.	8f#/	.	8dd\L	.	8D\	-sis	.	8a\	-sis	8r	8dd\L
8d\J	.	8f#/J	.	8dd\J	.	8d\	o-	.	8dd\	o-	8dd\	8ff#\J
=50	=50	=50	=50	=50	=50	=50	=50	=50	=50	=50	=50	=50
8B\L	.	8g/L	.	8ee\L	.	8B\L	-ſan-	.	4dd\	-ſan-	8dd\L	8gg\L
8F#\	.	8cc/	.	8aa\	.	8F#\J	.	.	.	.	8ff#\	8aa\
8G\	.	8b/	.	8bb\	.	8G\	-na	.	8dd\	-na	8gg\	8bb\
*	*	*	*	*	*	*	*	*	*	*ij	*	*
8d\J	.	8a/J	.	8ff#\J	.	8d\	O-	.	8dd\	o-	8dd\J	8ff#\J
!	!	!	!	!	!	!	!	!	!	!	!	!
8B\L	.	8g/L	.	8gg\L	.	8B\L	-san-	.	4dd\	-ſan-	8dd\L	8gg\L
8F#\	.	8cc/	.	8aa\	.	8F#\J	.	.	.	.	8ff#\	8aa\
8G\	.	8dd/	.	8bb\	.	8G\	-na	.	8dd\	-na	8gg\	8bb\
*	*	*	*	*	*	*	*	*	*	*Xij	*	*
8BB/J	.	8g/J	.	8dd\J	.	8B\	o-	.	8dd\	o-	8dd\J	8gg\J
!	!	!	!	!	!	!LO:LB:g=original	!	!	!	!	!LO:LB:g=original	!LO:LB:g=original
=51	=51	=51	=51	=51	=51	=51	=51	=51	=51	=51	=51	=51
!	!	!	!	!	!	!	!	!	!	!	!	!
8C/L	.	16g/LL	.	16ee\LL	.	8c\	-ſan-	.	8ee\	-ſan-	4ee\	4gg\
.	.	16g/	.	16ee\	.	.	.	.	.	.	.	.
8c\	.	16g/	.	16ee\	.	8c\	-na	.	8ee\	-na	.	.
.	.	16g/JJ	.	16ee\JJ	.	.	.	.	.	.	.	.
8A\	.	16f#/LL	.	16ccc\LL	.	8A\	in	.	8ee\	.	8r	8r
.	.	16f#/	.	16ccc\	.	.	.	.	.	.	.	.
8A\J	.	16f#/	.	16ccc\	.	8A\	ex-	.	8ee\	in	8ff#\	8gg\
.	.	16f#/JJ	.	16ccc\JJ	.	.	.	.	.	.	.	.
!	!	!	!	!	!	!	!	!	!	!	!	!
!	!	!	!	!	!	!	!	!	!LO:LB:g=original	!	!	!
!	!	!	!	!	!	!	!	!	!LO:TX:t=P:problem= przed końcem systemu zapisana fala (custos nie oznaczający wysokości dźwięku w kolejnym systemie)	!	!	!
8BB/L	.	16f#/LL	.	16dd\LL	.	4B\	-cel-	.	4dd\	excel-	4ff#\	4ff#\
.	.	16f#/	.	16dd\	.	.	.	.	.	.	.	.
8B\	.	16f#/	.	16dd\	.	.	.	.	.	.	.	.
.	.	16f#/JJ	.	16dd\JJ	.	.	.	.	.	.	.	.
8G\	.	16e/LL	.	16bb\LL	.	8B\	-sis	.	8dd\	-sis	8r	8r
.	.	16e/	.	16bb\	.	.	.	.	.	.	.	.
8G\J	.	16e/	.	16bb\	.	8E\	o-	.	8dd\	o-	8ee\	8ee\
.	.	16e/JJ	.	16bb\JJ	.	.	.	.	.	.	.	.
=52	=52	=52	=52	=52	=52	=52	=52	=52	=52	=52	=52	=52
!	!	!	!	!	!	!	!	!	!	!	!	!
*	*	*	*	*	*	*	*ij	*	*	*ij	*	*
8AA/L	.	16e/LL	.	16cc\LL	.	8A\	-san-	.	8cc\	-san-	4ee\	4ee\
.	.	16e/	.	16cc\	.	.	.	.	.	.	.	.
8A\	.	16e/	.	16cc\	.	8A\	-na	.	8cc\	-na	.	.
.	.	16e/JJ	.	16cc\JJ	.	.	.	.	.	.	.	.
!	!	!LO:LB:g=original	!	!	!	!	!	!	!	!	!LO:TX:t=P:problem=przed pauzą jeszcze jedna, ćwierćnutowa	!
8F#\	.	16d/LL	.	16aa\LL	.	8F#\	in	.	8cc\	in	8r	8r
.	.	16d/	.	16aa\	.	.	.	.	.	.	.	.
!LO:TX:t=P:problem= przed końcem systemu zapisana fala (custos nie oznaczający wysokości dźwięku w kolejnym systemie)	!	!	!	!	!	!	!	!	!	!	!	!
8F#\J	.	16d/	.	16aa\	.	8F#\	ex-	.	8cc\	ex-	8dd\	8dd\
.	.	16d/JJ	.	16aa\JJ	.	.	.	.	.	.	.	.
!LO:LB:g=original	!	!	!	!	!	!	!	!	!	!	!	!
!LO:TX:t=P:problem=mixed beam	!	!	!	!	!	!	!	!	!	!	!	!
8G/L	.	16d/LL	.	16b\LL	.	8G\	-cel-	.	8b\	-cel-	4dd\	4dd\
.	.	16d/	.	16b\	.	.	.	.	.	.	.	.
8G/	.	16d/	.	16b\	.	8G\	-sis	.	8b\	-sis	.	.
.	.	16d/JJ	.	16b\JJ	.	.	.	.	.	.	.	.
*	*	*	*	*	*	*	*Xij	*	*	*Xij	*	*
8BB\	.	16d/LL	.	16gg\LL	.	8BB/	in	.	8dd\	in	8r	8r
.	.	16d/	.	16gg\	.	.	.	.	.	.	.	.
8BB\J	.	16d/	.	16gg\	.	8BB/	ex-	.	8b\	ex-	8ee\	8ff#\
.	.	16d/JJ	.	16gg\JJ	.	.	.	.	.	.	.	.
!	!	!	!	!LO:LB:g=original	!	!	!	!	!	!	!	!
=53	=53	=53	=53	=53	=53	=53	=53	=53	=53	=53	=53	=53
.	.	.	.	.	.	.	.	.	8qb/	.	.	.
4C/	.	8g/L	.	16ee\LL	.	4C/	-cel-	.	4a\	-cel-	4dd\	4gg\
.	.	.	.	16cc\	.	.	.	.	.	.	.	.
.	.	8e/J	.	16b\	.	.	.	.	.	.	.	.
.	.	.	.	16a\JJ	.	.	.	.	.	.	.	.
!	!	!	!	!	!	!	!	!	!	!	!	!
.	.	.	.	.	.	.	.	.	8qqg/	.	.	.
4D/	.	4f#/	.	8dd\L	.	4D/	.	.	4f#\	-sis	4dd\	4ff#\
.	.	.	.	8d/J	.	.	.	.	.	.	.	.
4GG/	.	16g/LL	.	16g/LL	.	4GG/	-sis	.	4g\	.	4dd\	4gg\
.	.	16a/	.	16a/	.	.	.	.	.	.	.	.
.	.	16b/	.	16b/	.	.	.	.	.	.	.	.
.	.	16cc/JJ	.	16cc/JJ	.	.	.	.	.	.	.	.
8r	.	8dd\L	.	16dd\LL	.	8r	.	.	8r	.	8r	8r
.	.	.	.	16b\	.	.	.	.	.	.	.	.
8BB/	.	16cc\L	.	16a\	.	8B\	o-	.	8dd\	o-	8dd\	8gg\
.	.	16b\JJ	.	16g\JJ	.	.	.	.	.	.	.	.
=54	=54	=54	=54	=54	=54	=54	=54	=54	=54	=54	=54	=54
!	!	!	!	!	!	!	!	!	!	!	!	!
8C/L	.	16g/LL	.	16ee\LL	.	8c\	-san-	.	8ee\	-ſan-	4ee\	4gg\
.	.	16g/	.	16ee\	.	.	.	.	.	.	.	.
8c\	.	16g/	.	16ee\	.	8c\	-na	.	8ee\	-na	.	.
!	!	!	!	!	!LO:DY:b:t=pia	!	!	!	!	!	!	!
.	.	16g/JJ	.	16ee\JJ	p	.	.	.	.	.	.	.
8A\	.	16f#/LL 16g	.	16ccc\LL	.	8A\	in	.	8ee\	in	8r	8r
.	.	16f#/	.	16ccc\	.	.	.	.	.	.	.	.
8A\J	.	16f#/	.	16ccc\	.	8A\	ex-	.	8ee\	ex-	8ff#\	8ff#\
.	.	16f#/JJ	.	16ccc\JJ	.	.	.	.	.	.	.	.
!	!	!	!	!	!	!	!	!	!	!	!	!
8BB/L	.	16f#/LL	.	16dd\LL	.	4B\	-cel-	.	4dd\	-cel-	4ee\	4ff#\
.	.	16f#/	.	16dd\	.	.	.	.	.	.	.	.
8B\	.	16f#/	.	16dd\	.	.	.	.	.	.	.	.
.	.	16f#/JJ	.	16dd\JJ	.	.	.	.	.	.	.	.
8G\	.	16e/LL	.	16bb\LL	.	8G\	-sis	.	8dd\	-sis	8r	8r
.	.	16e/	.	16bb\	.	.	.	.	.	.	.	.
*	*	*	*	*	*	*	*ij	*	*	*	*	*
8G\J	.	16e/	.	16bb\	.	8G\	o-	.	8dd\	o-	8ee\	8ee\
.	.	16e/JJ	.	16bb\JJ	.	.	.	.	.	.	.	.
=55	=55	=55	=55	=55	=55	=55	=55	=55	=55	=55	=55	=55
!	!	!	!	!	!	!	!	!	!	!	!	!
*	*	*	*	*	*	*	*	*	*	*ij	*	*
8AA/L	.	16e/LL	.	16cc\LL	.	8A\	-san-	.	8cc\	-san-	4ee\	4ee\
.	.	16e/	.	16cc\	.	.	.	.	.	.	.	.
8A\	.	16e/	.	16cc\	.	8A\	-na	.	8cc\	-na	.	.
.	.	16e/JJ	.	16cc\JJ	.	.	.	.	.	.	.	.
8F#\	.	16d/LL	.	16aa\LL	.	8F#\	in	.	8cc\	in	8r	8r
.	.	16d/	.	16aa\	.	.	.	.	.	.	.	.
8F#\J	.	16d/	.	16aa\	.	8F#\	ex-	.	8cc\	ex-	8dd\	8dd\
.	.	16d/JJ	.	16aa\JJ	.	.	.	.	.	.	.	.
!	!	!	!	!	!	!	!	!	!	!	!	!
8G\L	.	16d/LL	.	16b\LL	.	8G\	-cel-	.	8g\	-cel-	4dd\	4dd\
.	.	16d/	.	16b\	.	.	.	.	.	.	.	.
8G\	.	16d/	.	16b\	.	8G\	-sis	.	8g\	-sis	.	.
.	.	16d/JJ	.	16b\JJ	.	.	.	.	.	.	.	.
!	!	!	!	!	!	!LO:LB:g=original	!	!	!	!	!	!
*	*	*	*	*	*	*	*Xij	*	*	*Xij	*	*
8BB/	.	16d/LL	.	16gg\LL	.	8BB/	in	.	8dd\	in	8r	8r
.	.	16d/	.	16gg\	.	.	.	.	.	.	.	.
8BB/J	.	16d/	.	16gg\	.	8BB/	ex-	.	8g\	ex-	8ee\	8gg\
.	.	16d/JJ	.	16gg\JJ	.	.	.	.	.	.	.	.
=56	=56	=56	=56	=56	=56	=56	=56	=56	=56	=56	=56	=56
4C/	.	8g/L	.	16ee\LL	.	4C/	-cel-	.	(4a\	-ce-	4dd\	4gg\
.	.	.	.	16cc\	.	.	.	.	.	.	.	.
.	.	8e/J	.	16b\	.	.	.	.	.	.	.	.
.	.	.	.	16a\JJ	.	.	.	.	.	.	.	.
!	!	!	!	!	!	!	!	!	!	!	!	!
!	!	!	!	!	!	!	!	!	!LO:TX:t=P:problem= przed końcem systemu zapisana fala (custos nie oznaczający wysokości dźwięku w kolejnym systemie)	!	!	!
4D/	.	4f#/	.	8dd\L	.	4D/	.	.	8f#\)	-lsis	4dd\	4ff#\
.	.	.	.	8d/J	.	.	.	.	4g\	.	.	.
4GG/	.	16g/LL	.	16g/LL	.	4GG/	-sis	.	.	.	4dd\	4gg\
.	.	16a/	.	16a/	.	.	.	.	.	.	.	.
.	.	16b/	.	16b/	.	.	.	.	4r	.	.	.
.	.	16cc/JJ	.	16cc/JJ	.	.	.	.	.	.	.	.
8r	.	8dd\L	.	16dd\LL	.	8r	.	.	.	.	8r	8r
.	.	.	.	16b\	.	.	.	.	.	.	.	.
8BB/	.	16cc\L	.	16a\	.	16B\	in	.	16dd\	ex-	8dd\	8gg\
.	.	16b\JJ	.	16g\JJ	.	16B\	ex-	.	16dd\	.	.	.
!	!	!LO:LB:g=original	!	!	!	!	!	!	!	!	!	!
=57	=57	=57	=57	=57	=57	=57	=57	=57	=57	=57	=57	=57
4C/	.	4g/	.	4ee\	.	4c\	-cel-	.	4ee\	-cel-	4ee\	4gg\
4D/	.	4cc\	.	4ff#\	.	4d\	.	.	4ff#\	.	4dd\	4ff#\
8E\L	.	8b\L	.	8gg\	.	8e\	-sis	.	8gg\	.	8r	8gg\
8BB\	.	8dd\	.	4gg\	.	8B\	in	.	(16g\LL	.	8dd\L	4gg\
.	.	.	.	.	.	.	.	.	16a\JJ)	.	.	.
8C\	.	8ee\	.	.	.	8c\L	ex-	.	4aT\	.	8ee\	.
8D\J	.	8a\J	.	8ff#\	.	8d\J	-cel-	.	.	.	8dd\J	8ff#\
=58	=58	=58	=58	=58	=58	=58	=58	=58	=58	=58	=58	=58
4GG/	.	4G/ 4d 4b	.	4G/ 4d 4b 4gg	.	4G\	-sis	.	4g\	-sis	4dd\	4gg\
4r	.	4r	.	4r	.	4r	.	.	4r	.	4r	4r
!	!	!	!	!	!	!	!	!	!LO:TX:t=P:problem=od tego miejsca zapis na stronie 3	!	!	!
!	!	!	!	!LO:TX:b:i:t=Benedict(us)	!	!LO:TX:b:i:t=Benedict(us) tacet&colon;	!	!	!	!	!	!LO:TX:a:i:t=Benedict(us) tacet
!	!	!	!	!	!	!	!	!	!	!	!	!LO:TX:b:i:t=Osanna ut ſupra
2r	.	2r	.	2r	.	2r	.	.	2r	.	2r	2r
!	!	!	!	!	!	!	!	!	!LO:TX:b:i:t=B. verte Ultra	!	!	!
!	!	!	!	!LO:LB:g=original	!	!	!	!	!LO:LB:g=original	!	!	!
=59||	=59||	=59||	=59||	=59||	=59||	=59||	=59||	=59||	=59||	=59||	=59||	=59||
*M4/4	*	*M4/4	*	*	*	*	*	*	*	*	*	*
*met(C.)	*	*met(C.)	*	*	*	*	*	*	*	*	*	*
!LO:TX:t=P:problem=mixed beam	!	!LO:TX:b:i:t=Benedictus	!	!	!	!LO:TX:b:i:t=Osanna ut supra	!	!	!	!	!	!
!LO:TX:a:i:t=Andante Solo	!	!	!	!	!	!	!	!	!	!	!LO:TX:a:i:t=Benedict(us) tacet	!
!LO:TX:b:i:t=Benedictus	!	!	!	!	!	!	!	!	!	!	!LO:TX:b:i:t=Osanna ut supra	!
8EE/L	.	2r	.	8ee\L	.	1ryy	.	.	1ryy	.	1ryy	1ryy
8E\	.	.	.	8b\J	.	.	.	.	.	.	.	.
8D\	.	.	.	16b\LL	.	.	.	.	.	.	.	.
.	.	.	.	16a\	.	.	.	.	.	.	.	.
8BB/J	.	.	.	16g\	.	.	.	.	.	.	.	.
.	.	.	.	16f#\JJ	.	.	.	.	.	.	.	.
8r	.	8ee\L	.	8g/L	.	.	.	.	.	.	.	.
!	!	!	!	!	!	!	!	!	!	!	!	!
8E\L	.	8b\J	.	8e/J	.	.	.	.	.	.	.	.
8D\	.	16b/LL	.	8r	.	.	.	.	.	.	.	.
.	.	16a/	.	.	.	.	.	.	.	.	.	.
8BB\J	.	16g/	.	8b\	.	.	.	.	.	.	.	.
.	.	16f#/JJ	.	.	.	.	.	.	.	.	.	.
=60	=60	=60	=60	=60	=60	=60	=60	=60	=60	=60	=60	=60
4E\	.	8g/L	.	8b\L	.	1ryy	.	.	1ryy	.	1ryy	1ryy
.	.	8e/J	.	8gg\J	.	.	.	.	.	.	.	.
4r	.	(16ee\LL	.	(16gg\LL	.	.	.	.	.	.	.	.
.	.	16dd#X\	.	16ff#\	.	.	.	.	.	.	.	.
.	.	16dd#\)	.	16ff#\)	.	.	.	.	.	.	.	.
.	.	16dd#\JJ	.	16gg\JJ	.	.	.	.	.	.	.	.
!	!	!	!	!	!	!	!	!	!	!	!	!
4BB/	.	8B/L	.	8B/L	.	.	.	.	.	.	.	.
.	.	8ff#\J	.	8aa\J	.	.	.	.	.	.	.	.
4r	.	16ff#\LL	.	16aa\LL	.	.	.	.	.	.	.	.
.	.	(16ee\	.	(16gg\	.	.	.	.	.	.	.	.
.	.	16ee\)	.	16gg\)	.	.	.	.	.	.	.	.
.	.	16ff#\JJ	.	16aa\JJ	.	.	.	.	.	.	.	.
=61	=61	=61	=61	=61	=61	=61	=61	=61	=61	=61	=61	=61
!	!	!LO:TX:t=P:problem=mixed beam	!	!	!	!	!	!	!	!	!	!
8r	.	8gg\L	.	16bb\LL	.	1ryy	.	.	1ryy	.	1ryy	1ryy
.	.	.	.	16gg\JJ	.	.	.	.	.	.	.	.
8E\L	.	8g/	.	4ee\	.	.	.	.	.	.	.	.
8G\	.	8b/	.	.	.	.	.	.	.	.	.	.
8E\J	.	8g/J	.	(16ff#\LL	.	.	.	.	.	.	.	.
.	.	.	.	16gg\JJ)	.	.	.	.	.	.	.	.
8r	.	8r	.	(16ff#\LL	.	.	.	.	.	.	.	.
.	.	.	.	16dd#X\JJ)	.	.	.	.	.	.	.	.
8BB/L	.	8d#X/L	.	4f#/	.	.	.	.	.	.	.	.
8D#X/	.	8f#/	.	.	.	.	.	.	.	.	.	.
8BB/J	.	8d#/J	.	16g/LL	.	.	.	.	.	.	.	.
.	.	.	.	16a/JJ	.	.	.	.	.	.	.	.
!LO:LB:g=original	!	!	!	!	!	!	!	!	!	!	!	!
=62	=62	=62	=62	=62	=62	=62	=62	=62	=62	=62	=62	=62
!	!	!	!	!	!	!	!	!	!LO:TX:a:i:t=Solo	!	!	!
8E\L	.	8B/L	.	(24g/LL	.	1ryy	.	.	2r	.	1ryy	1ryy
.	.	.	.	24f#/)	.	.	.	.	.	.	.	.
.	.	.	.	24e/JJ	.	.	.	.	.	.	.	.
8G\	.	16d/L	.	24a/LL	.	.	.	.	.	.	.	.
.	.	.	.	(24g/	.	.	.	.	.	.	.	.
.	.	16f#/JJ	.	.	.	.	.	.	.	.	.	.
.	.	.	.	24f#/JJ)	.	.	.	.	.	.	.	.
8B\	.	4d#X/	.	(4f#t/	.	.	.	.	.	.	.	.
8BB/J	.	.	.	.	.	.	.	.	.	.	.	.
!	!	!	!	!LO:TX:b:i:t=finis	!	!	!	!	!	!	!	!
4E\	.	4e;;/	.	4e/)	.	.	.	.	8ee\	Bene-	.	.
.	.	.	.	.	.	.	.	.	8g 8b\	-di-	.	.
4D#X\	.	4r	.	4r	.	.	.	.	(16b\LL	-ctus	.	.
.	.	.	.	.	.	.	.	.	16a\JJ)	.	.	.
.	.	.	.	.	.	.	.	.	16g/	.	.	.
.	.	.	.	.	.	.	.	.	16f#/	qui	.	.
=63	=63	=63||	=63	=63||	=63	=63	=63	=63	=63	=63	=63	=63
!	!	!	!	!	!	!	!	!	!	!	!	!
.	.	.	.	8qqdd#X/	.	.	.	.	.	.	.	.
!	!	!	!LO:DY:a:t=pia	!	!	!	!	!	!	!	!	!
8r	.	4r	p	8ee\L	.	1ryy	.	.	8g/	ve-	1ryy	1ryy
8E\L	.	.	.	8b\J	.	.	.	.	8e/	-nit	.	.
!	!	!	!	!	!LO:DY:a:t=pia	!	!	!	!	!	!	!
8D#X\	.	8r	.	16b/LL	p	.	.	.	8r	.	.	.
.	.	.	.	16a/	.	.	.	.	.	.	.	.
8BB\J	.	8d#X/	.	16g/	.	.	.	.	8b\	in	.	.
.	.	.	.	16f#/JJ	.	.	.	.	.	.	.	.
!	!	!	!	!	!	!	!	!	!LO:LB:g=original	!	!	!
!	!	!LO:TX:t=P:problem=mixed beam	!	!LO:TX:t=P:problem=mixed beam	!	!	!	!	!	!	!	!
4E\	.	8B/L	.	16g/LL	.	.	.	.	8ee\L	no-	.	.
.	.	.	.	16gg\	.	.	.	.	.	.	.	.
.	.	8b\	.	16aa\	.	.	.	.	16ff#\L	.	.	.
.	.	.	.	16bb\JJ	.	.	.	.	16gg\JJ	.	.	.
8AA/L	.	8cc\	.	8aa\L	.	.	.	.	8ff#\	-mi-	.	.
8BB/J	.	8b\J	.	16gg\L	.	.	.	.	(16ee\LL	-ne	.	.
.	.	.	.	16ff#\JJ	.	.	.	.	16dd#X\JJ)	.	.	.
=64	=64	=64	=64	=64	=64	=64	=64	=64	=64	=64	=64	=64
8E\L	.	4b\	.	8gg\L	.	1ryy	.	.	8.ee\	Domi-	1ryy	1ryy
8F#\	.	.	.	16ff#\L	.	.	.	.	.	.	.	.
.	.	.	.	16gg\JJ	.	.	.	.	16b\	-ni	.	.
!	!	!LO:TX:t=P:problem= przed końcem systemu zapisana fala (custos nie oznaczający wysokości dźwięku w kolejnym systemie)	!	!	!	!	!	!	!	!	!	!
8G\	.	4r	.	8ee\L	.	.	.	.	8b\	qui	.	.
8E\J	.	.	.	8e/J	.	.	.	.	8b\	ve-	.	.
!	!	!LO:LB:g=original	!	!	!	!	!	!	!	!	!	!
4A\	.	4e/	.	4cc\	.	.	.	.	8cc\L	.	.	.
.	.	.	.	.	.	.	.	.	16dd\L	.	.	.
.	.	.	.	.	.	.	.	.	16ee\JJ	.	.	.
*	*	*	*	*	*	*	*	*	*Xtuplet	*	*	*
!	!	!	!	!	!	!	!	!	!LO:TX:t=P:problem=wysokość nuty niejasna	!	!	!
8r	.	8r	.	8r	.	.	.	.	(24dd\LL	.	.	.
.	.	.	.	.	.	.	.	.	24cc\	.	.	.
.	.	.	.	.	.	.	.	.	24b\JJ)	.	.	.
8F#\	.	8a/	.	8d/	.	.	.	.	(24cc\LL	.	.	.
.	.	.	.	.	.	.	.	.	24b\	.	.	.
.	.	.	.	.	.	.	.	.	24a\JJ)	.	.	.
=65	=65	=65	=65	=65	=65	=65	=65	=65	=65	=65	=65	=65
4G\	.	4d/	.	4b\	.	1ryy	.	.	8b\L	.	1ryy	1ryy
.	.	.	.	.	.	.	.	.	16cc\L	.	.	.
.	.	.	.	.	.	.	.	.	16dd\JJ	.	.	.
8r	.	8r	.	8r	.	.	.	.	(24cc\LL	.	.	.
.	.	.	.	.	.	.	.	.	24b\)	.	.	.
.	.	.	.	.	.	.	.	.	24a\JJ	.	.	.
!	!	!	!	!LO:TX:t=P:problem= przed końcem systemu zapisana fala (custos nie oznaczający wysokości dźwięku w kolejnym systemie)	!	!	!	!	!	!	!	!
8E\	.	8g/	.	8c/	.	.	.	.	24b\LL	.	.	.
.	.	.	.	.	.	.	.	.	(24a\	.	.	.
.	.	.	.	.	.	.	.	.	24g\JJ)	.	.	.
!	!	!	!	!LO:LB:g=original	!	!	!	!	!	!	!	!
4F#\	.	4c/	.	4a/	.	.	.	.	8a\L	.	.	.
.	.	.	.	.	.	.	.	.	16b\L	.	.	.
.	.	.	.	.	.	.	.	.	16cc\JJ	.	.	.
8r	.	8r	.	8r	.	.	.	.	(24b\LL	.	.	.
.	.	.	.	.	.	.	.	.	24a\	.	.	.
.	.	.	.	.	.	.	.	.	24g\JJ)	.	.	.
8D#X\	.	8f#/	.	8B/	.	.	.	.	(24a\LL	.	.	.
.	.	.	.	.	.	.	.	.	24g\	.	.	.
.	.	.	.	.	.	.	.	.	24f#\JJ)	.	.	.
=66	=66	=66	=66	=66	=66	=66	=66	=66	=66	=66	=66	=66
4E\	.	4B/	.	8g/L	.	1ryy	.	.	4g/	-nit	1ryy	1ryy
.	.	.	.	32b/LL	.	.	.	.	.	.	.	.
.	.	.	.	(32a/	.	.	.	.	.	.	.	.
.	.	.	.	32g/	.	.	.	.	.	.	.	.
.	.	.	.	32f#/JJJ)	.	.	.	.	.	.	.	.
!	!	!	!	!	!	!	!	!	!	!	!	!
8r	.	8r	.	8e/L	.	.	.	.	8e/	.	.	.
!	!	!	!	!	!	!	!	!	!LO:TX:t=P:problem= przed końcem systemu zapisana fala (custos nie oznaczający wysokości dźwięku w kolejnym systemie)	!	!	!
8B\	.	8dd\	.	8gg\J	.	.	.	.	8gg\	in	.	.
!	!	!LO:TX:t=P:problem=mixed beam	!	!	!	!	!	!	!	!	!	!
8A\L	.	8cc\L	.	8ff#\L	.	.	.	.	8ff#\L	no-	.	.
8G\	.	8b\	.	8gg\	.	.	.	.	8gg\J	.	.	.
8F#\	.	8d/	.	8aa\	.	.	.	.	8cc\	-mi-	.	.
8G\J	.	8dd\J	.	8gg\J	.	.	.	.	8b\	-ne	.	.
=67	=67	=67	=67	=67	=67	=67	=67	=67	=67	=67	=67	=67
.	.	.	.	8qqaa/	.	.	.	.	8qqcc/	.	.	.
4d\	4:3	4dd\	.	8gg\L	.	1ryy	.	.	8b\	Do-	1ryy	1ryy
.	.	.	.	16ff#\L	.	.	.	.	(16a\LL	-mi-	.	.
.	.	.	.	16ee\JJ	.	.	.	.	16g\JJ)	.	.	.
8r	.	8r	.	8ff#\L	.	.	.	.	8a\	-ni	.	.
!	!	!	!	!LO:TX:t=P:problem=wysokość nuty niejasna	!	!	!	!	!	!	!	!
!	!	!	!	!LO:TX:t=d	!	!	!	!	!	!	!	!
8D\	5:2_	8b\	.	8dd\J	.	.	.	.	8dd\	qui	.	.
8D\L	.	8cc\	.	8ee\	.	.	.	.	8ee\	ve-	.	.
8D\	5	4b\	.	4dd\	.	.	.	.	4dd\	.	.	.
8D\	6	.	.	.	.	.	.	.	.	.	.	.
8D\J	.	(16a\LL	.	16cc\LL	.	.	.	.	(16cc\LL	.	.	.
.	.	16g\JJ)	.	16b\JJ	.	.	.	.	16b\JJ)	.	.	.
=68	=68	=68	=68	=68	=68	=68	=68	=68	=68	=68	=68	=68
8D\L	.	8b/	.	8dd\	.	1ryy	.	.	8dd\	.	1ryy	1ryy
8D\	5 3	4a/ 4b	.	4cc\	.	.	.	.	4cc\	.	.	.
8D\	7 5	.	.	.	.	.	.	.	.	.	.	.
8D\J	.	(16g/LL	.	16b\LL	.	.	.	.	(16b\LL	.	.	.
.	.	16f#/JJ)	.	16a\JJ	.	.	.	.	16a\JJ)	.	.	.
8D\L	.	8a/	.	8cc\	.	.	.	.	8cc\	.	.	.
8D\	2	4g/	.	4b\	.	.	.	.	(4b\	.	.	.
8D\	.	.	.	.	.	.	.	.	.	.	.	.
8D\J	6 4	(16f#/LL	.	16a\LL	.	.	.	.	16a\LL)	.	.	.
.	.	16e/JJ)	.	16g\JJ	.	.	.	.	16g\JJ	.	.	.
=69	=69	=69	=69	=69	=69	=69	=69	=69	=69	=69	=69	=69
4D\	.	16d/LL	.	16f#/LL	.	1ryy	.	.	16f#/LL	.	1ryy	1ryy
.	.	16e/	.	16g/	.	.	.	.	16g/	.	.	.
.	.	16f#/	.	16a/	.	.	.	.	16a/	.	.	.
.	.	16g/JJ	.	16b/JJ	.	.	.	.	16b/JJ	.	.	.
4r	.	16a/LL	.	16cc\LL	.	.	.	.	16cc\LL	.	.	.
.	.	16b/	.	16dd\	.	.	.	.	16dd\	.	.	.
.	.	16cc/	.	16ee\	.	.	.	.	16ee\	.	.	.
.	.	16a/JJ	.	16ff#\JJ	.	.	.	.	16ff#\JJ	.	.	.
8G\L	.	4b/	.	4gg\	.	.	.	.	8.gg\L	.	.	.
8A\	.	.	.	.	.	.	.	.	.	.	.	.
.	.	.	.	.	.	.	.	.	(32ff#\LL	.	.	.
.	.	.	.	.	.	.	.	.	32ee\JJJ)	.	.	.
8B\	.	4r	.	4r	.	.	.	.	8dd\	-nit	.	.
8c\J	.	.	.	.	.	.	.	.	8cc\	in	.	.
!	!	!	!	!	!	!	!	!	!LO:LB:g=original	!	!	!
=70	=70	=70	=70	=70	=70	=70	=70	=70	=70	=70	=70	=70
4d\	.	1r	.	2r	.	1ryy	.	.	8b\	no-	1ryy	1ryy
.	.	.	.	.	.	.	.	.	16a\	-mi-	.	.
.	.	.	.	.	.	.	.	.	16g\	-ne	.	.
.	.	.	.	.	.	.	.	.	8qqg/	.	.	.
4D/	.	.	.	.	.	.	.	.	8.a\	Do-	.	.
.	.	.	.	.	.	.	.	.	16g\	-mi-	.	.
4G\	.	.	.	8gg\L	.	.	.	.	4g\	-ni	.	.
.	.	.	.	8dd\J	.	.	.	.	.	.	.	.
4F#\	.	.	.	16dd\LL	.	.	.	.	4r	.	.	.
.	.	.	.	16cc\	.	.	.	.	.	.	.	.
.	.	.	.	16b\	.	.	.	.	.	.	.	.
.	.	.	.	16a\JJ	.	.	.	.	.	.	.	.
=71	=71	=71	=71	=71	=71	=71	=71	=71	=71	=71	=71	=71
!	!	!LO:TX:a:t=1	!	!	!	!	!	!	!	!	!	!
8r	.	8gg\L	.	8b\L	.	1ryy	.	.	1r	.	1ryy	1ryy
8G\L	.	[8dd\J	.	8g\J	.	.	.	.	.	.	.	.
8F#\	.	16dd\LL]	.	8r	.	.	.	.	.	.	.	.
.	.	16cc\	.	.	.	.	.	.	.	.	.	.
8D\J	.	16b\	.	8dd\	.	.	.	.	.	.	.	.
.	.	16a\JJ	.	.	.	.	.	.	.	.	.	.
!LO:LB:g=original	!	!	!	!	!	!	!	!	!	!	!	!
!LO:TX:t=P:problem=końcówka taktu niewidoczna - brak brzegu karty	!	!	!	!	!	!	!	!	!	!	!	!
2D\yy	.	8b\L	.	8dd\L	.	.	.	.	.	.	.	.
!	!	!LO:TX:t=P:problem= przed końcem systemu zapisana fala (custos nie oznaczający wysokości dźwięku w kolejnym systemie)	!	!	!	!	!	!	!	!	!	!
.	.	8g\J	.	8bb\J	.	.	.	.	.	.	.	.
!	!	!LO:LB:g=original	!	!	!	!	!	!	!	!	!	!
.	.	16gg\LL	.	16bb\LL	.	.	.	.	.	.	.	.
.	.	(16ff#\	.	(16aa\	.	.	.	.	.	.	.	.
.	.	16ff#\)	.	16aa\)	.	.	.	.	.	.	.	.
.	.	16gg\JJ	.	16bb\JJ	.	.	.	.	.	.	.	.
=72	=72	=72	=72	=72	=72	=72	=72	=72	=72	=72	=72	=72
!	!	!	!	!	!	!	!	!	!	!	!	!
4D\	.	8d/L	.	8d/L	.	1ryy	.	.	1r	.	1ryy	1ryy
.	.	8aa\J	.	8ccc\J	.	.	.	.	.	.	.	.
4r	.	(16aa\LL	.	16ccc\LL	.	.	.	.	.	.	.	.
.	.	16gg\)	.	16bb\	.	.	.	.	.	.	.	.
.	.	16gg\	.	16bb\	.	.	.	.	.	.	.	.
.	.	16aa\JJ	.	16ccc\JJ	.	.	.	.	.	.	.	.
8r	.	8bb\L	.	16ddd\LL	.	.	.	.	.	.	.	.
!	!	!	!	!LO:TX:t=P:problem= przed końcem systemu zapisana fala (custos nie oznaczający wysokości dźwięku w kolejnym systemie)	!	!	!	!	!	!	!	!
.	.	.	.	16bb\JJ	.	.	.	.	.	.	.	.
!	!	!	!	!LO:LB:g=original	!	!	!	!	!	!	!	!
8G\L	.	8b\	.	4gg\	.	.	.	.	.	.	.	.
8B\	.	8dd\	.	.	.	.	.	.	.	.	.	.
8G\J	.	8b\J	.	(16aa\LL	.	.	.	.	.	.	.	.
.	.	.	.	16bb\JJ)	.	.	.	.	.	.	.	.
=73	=73	=73	=73	=73	=73	=73	=73	=73	=73	=73	=73	=73
*	*	*^	*	*	*	*	*	*	*	*	*	*
8r	.	8raa	2.f#\yy	.	16aa\LL	.	1ryy	.	.	1r	.	1ryy	1ryy
.	.	.	.	.	16ff#\JJ	.	.	.	.	.	.	.	.
8D\L	.	8f#/L	.	.	4a/	.	.	.	.	.	.	.	.
8F#\	.	8a/	.	.	.	.	.	.	.	.	.	.	.
8D\J	.	8f#/J	.	.	(16b/LL	.	.	.	.	.	.	.	.
.	.	.	.	.	16cc/JJ)	.	.	.	.	.	.	.	.
!	!	!	!	!	!	!	!	!	!	!	!	!	!
8G\L	.	8d/L	.	.	24b\LL	.	.	.	.	.	.	.	.
.	.	.	.	.	(24a\	.	.	.	.	.	.	.	.
.	.	.	.	.	24g\JJ)	.	.	.	.	.	.	.	.
8C/	.	16e/L	.	.	(24cc\LL	.	.	.	.	.	.	.	.
.	.	.	.	.	24b\)	.	.	.	.	.	.	.	.
.	.	16a/JJ	.	.	.	.	.	.	.	.	.	.	.
.	.	.	.	.	24a\JJ	.	.	.	.	.	.	.	.
8D/	.	4a/	4f#\	.	4aT/	.	.	.	.	.	.	.	.
8DD/J	.	.	.	.	.	.	.	.	.	.	.	.	.
*	*	*v	*v	*	*	*	*	*	*	*	*	*	*
=74	=74	=74	=74	=74	=74	=74	=74	=74	=74	=74	=74	=74
!	!	!	!	!	!	!	!	!	!	!	!	!
8GG/L	.	8g/L	.	4g/	.	1ryy	.	.	8gg\	Be-	1ryy	1ryy
8G\	.	8b/	.	.	.	.	.	.	8dd\	-ne-	.	.
8F#\	.	8a/	.	4r	.	.	.	.	16dd\LL	-di-	.	.
.	.	.	.	.	.	.	.	.	16cc\JJ	.	.	.
8D\J	.	8f#/J	.	.	.	.	.	.	16b\	-ctus	.	.
.	.	.	.	.	.	.	.	.	16a\	.	.	.
!	!	!	!	!	!	!	!	!	!	!	!	!
8GG/L	.	8d/L	.	8gg\L	.	.	.	.	8b\	qui	.	.
8G\	.	8b/	.	8dd\J	.	.	.	.	8g\	ve-	.	.
8F#\	.	8a/	.	16dd\LL	.	.	.	.	8r	.	.	.
.	.	.	.	16cc\	.	.	.	.	.	.	.	.
8D\J	.	8f#/J	.	16b\	.	.	.	.	8dd\	-nit	.	.
.	.	.	.	16a\JJ	.	.	.	.	.	.	.	.
=75	=75	=75	=75	=75	=75	=75	=75	=75	=75	=75	=75	=75
!	!	!	!	!	!	!	!	!	!	!	!	!
8GG/L	.	8b/L	.	8b\L	.	1ryy	.	.	8dd\L	qui	1ryy	1ryy
8G\	.	8a/	.	8g\	.	.	.	.	16ee\L	.	.	.
.	.	.	.	.	.	.	.	.	16cc#X\JJ	ve-	.	.
8F#\	.	8a/	.	8a\	.	.	.	.	8dd\	-nit	.	.
8D\J	.	8a/J	.	8gg\J	.	.	.	.	8gg\	in	.	.
8D\L	.	8a/L	.	8ff#\L	.	.	.	.	8ff#\	no-	.	.
8E\	.	8g/	.	8cc#X\	.	.	.	.	8cc#X\	-mi-	.	.
8F#\	.	8a/	.	8dd\	.	.	.	.	8dd\	-ne	.	.
8D\J	.	8f#/J	.	8ccn\J	.	.	.	.	8ccn\	in	.	.
=76	=76	=76	=76	=76	=76	=76	=76	=76	=76	=76	=76	=76
4G\	.	4d/	.	4b\	.	1ryy	.	.	8b\L	no-	1ryy	1ryy
.	.	.	.	.	.	.	.	.	16a\L	.	.	.
.	.	.	.	.	.	.	.	.	16b\JJ	.	.	.
4r	.	16r	.	16r	.	.	.	.	16cc\LL	.	.	.
.	.	16b\LL	.	16dd\LL	.	.	.	.	16dd\	.	.	.
.	.	16cc\	.	16ee\	.	.	.	.	16ee\	.	.	.
.	.	16a\JJ	.	16ff#\JJ	.	.	.	.	16ff#\JJ	.	.	.
8r	.	16b`\LL	.	16gg\LL	.	.	.	.	16gg\LL	.	.	.
.	.	(16b\	.	16ff#\	.	.	.	.	16dd\	.	.	.
8G\L	.	16a\)	.	16cc\	.	.	.	.	16cc\	.	.	.
.	.	16g\JJ	.	16b\JJ	.	.	.	.	16b\JJ	.	.	.
!LO:TX:t=P:problem=wysokość nuty niejasna	!	!	!	!	!	!	!	!	!	!	!	!
!	!	!	!	!	!	!	!	!	!LO:TX:t=P:problem= przed końcem systemu zapisana fala (custos nie oznaczający wysokości dźwięku w kolejnym systemie)	!	!	!
.	.	.	.	8qdd/	.	.	.	.	8qqdd/	.	.	.
8C/	.	8a/L	.	8cc\L	.	.	.	.	8cc\L	.	.	.
8D/J	.	16g/L	.	16b\L	.	.	.	.	8a\J	.	.	.
.	.	16f#/JJ	.	16a\JJ	.	.	.	.	.	.	.	.
=77	=77	=77	=77	=77	=77	=77	=77	=77	=77	=77	=77	=77
4GG/	.	4g/	.	4b\	.	1ryy	.	.	16b\LL	.	1ryy	1ryy
.	.	.	.	.	.	.	.	.	16g\	.	.	.
.	.	.	.	.	.	.	.	.	16a\	.	.	.
.	.	.	.	.	.	.	.	.	16b\JJ	.	.	.
4r	.	16r	.	4r	.	.	.	.	16cc\LL	.	.	.
.	.	16b\LL	.	.	.	.	.	.	16dd\	.	.	.
.	.	16cc\	.	.	.	.	.	.	16ee\	.	.	.
.	.	16a\JJ	.	.	.	.	.	.	16ff#\JJ	.	.	.
8r	.	16b`/LL	.	16r	.	.	.	.	16gg\LL	.	.	.
.	.	(16b/	.	16dd\LL	.	.	.	.	16dd\	.	.	.
!	!	!	!	!	!	!	!	!	!	!	!	!
8G\L	.	16a/	.	16cc\	.	.	.	.	16cc\	.	.	.
.	.	16g/JJ)	.	16b\JJ	.	.	.	.	16b\JJ	.	.	.
.	.	.	.	8qdd/	.	.	.	.	8qdd/	.	.	.
8C/	.	8a/L	.	8cc\L	.	.	.	.	8cc\L	.	.	.
.	.	.	.	.	.	.	.	.	8qqb/	.	.	.
8D/J	.	16g/L	.	16b\L	.	.	.	.	8a\J	.	.	.
.	.	16f#/JJ	.	16a\JJ	.	.	.	.	.	.	.	.
!	!	!LO:LB:g=original	!	!	!	!	!	!	!	!	!	!
=78	=78	=78	=78	=78	=78	=78	=78	=78	=78	=78	=78	=78
!	!	!	!	!	!	!	!	!	!	!	!	!
8G\L	.	8g/L	.	8b\L	.	1ryy	.	.	8b\	-mi-	1ryy	1ryy
8GG/J	.	8e/J	.	16cc\L	.	.	.	.	16cc\	-ne	.	.
.	.	.	.	16b\JJ	.	.	.	.	16b\	.	.	.
!	!	!	!	!LO:TX:t=P:problem=nad trylem łuk	!	!	!	!	!	!	!	!
8D/L	.	4f#/	.	4aT/	.	.	.	.	8.a\	Do-	.	.
8DD/J	.	.	.	.	.	.	.	.	.	.	.	.
.	.	.	.	.	.	.	.	.	16g\	-mi-	.	.
8G\L	.	8g/L	.	8g/L	.	.	.	.	4g\	-ni	.	.
8D\J	.	8d/	.	8d/	.	.	.	.	.	.	.	.
4GG/	.	8G/	.	8G/	.	.	.	.	8r	.	.	.
.	.	8g/J	.	8b/J	.	.	.	.	8b\	qui	.	.
=79	=79	=79	=79	=79	=79	=79	=79	=79	=79	=79	=79	=79
8D\L	.	8f#/	.	8a\	.	1ryy	.	.	8a\	ve-	1ryy	1ryy
8D\	6	4a/	.	4cc\	.	.	.	.	4cc\	.	.	.
8D\	.	.	.	.	.	.	.	.	.	.	.	.
8D\J	.	8g/	.	(16b\LL	.	.	.	.	8b\	.	.	.
.	.	.	.	16a\JJ)	.	.	.	.	.	.	.	.
.	.	.	.	.	.	.	.	.	8qqcc/	.	.	.
8D\L	.	8g/L	.	8b\L	.	.	.	.	8b\L	.	.	.
8D\	3	16f#/L	.	16a\L	.	.	.	.	16a\L	.	.	.
.	.	16e/JJ	.	16g\JJ	.	.	.	.	16g\JJ	.	.	.
8D\	.	8f#/L	.	8a/L	.	.	.	.	8a\	-nit	.	.
8D\J	.	8f#/J	.	8a/J	.	.	.	.	8g\	in	.	.
!	!	!	!	!LO:LB:g=original	!	!	!	!	!	!	!	!
=80	=80	=80	=80	=80	=80	=80	=80	=80	=80	=80	=80	=80
4E\	.	8e/	.	8g/	.	1ryy	.	.	8g\L	no-	1ryy	1ryy
.	.	.	.	.	.	.	.	.	8qqa/	.	.	.
.	.	4f#/	.	4a/	.	.	.	.	8a\J	.	.	.
4AA/	.	.	.	.	.	.	.	.	8a\	-mi-	.	.
.	.	8e/	.	8g/	.	.	.	.	8g\	-ne	.	.
!LO:TX:t=P:problem=mixed beam	!	!	!	!	!	!	!	!	!	!	!	!
8BB/L	.	4e/	.	4g/	.	.	.	.	8.g/	Do-	.	.
16B\L	.	.	.	.	.	.	.	.	.	.	.	.
16c\JJ	.	.	.	.	.	.	.	.	16f#/	-mi-	.	.
16B\LL	.	4d#X/	.	4f#/	.	.	.	.	8f#/	-ni	.	.
16A\	.	.	.	.	.	.	.	.	.	.	.	.
16G\	.	.	.	.	.	.	.	.	8r	.	.	.
16F#\JJ	.	.	.	.	.	.	.	.	.	.	.	.
!LO:LB:g=original	!	!	!	!	!	!	!	!	!LO:LB:g=original	!	!	!
=81	=81	=81	=81	=81	=81	=81	=81	=81	=81	=81	=81	=81
8E\L	.	8r	.	2r	.	1ryy	.	.	8ee\	Be-	1ryy	1ryy
8E\	.	8g/L	.	.	.	.	.	.	8b\	-ne-	.	.
8D#X\	.	8f#/	.	.	.	.	.	.	(16b\LL	-di-	.	.
.	.	.	.	.	.	.	.	.	16a\JJ)	.	.	.
8BB\J	.	8d#X/J	.	.	.	.	.	.	16g/	-ctus	.	.
.	.	.	.	.	.	.	.	.	16f#/	qui	.	.
!LO:TX:t=P:problem=mixed beam	!	!	!	!	!	!	!	!	!	!	!	!
8EE/L	.	8B/L	.	8ee\L	.	.	.	.	8g/	ve-	.	.
8E\	.	8g/	.	8b\J	.	.	.	.	8e/	-nit	.	.
8D#\	.	8f#/	.	16b\LL	.	.	.	.	8r	.	.	.
.	.	.	.	16a\	.	.	.	.	.	.	.	.
8BB\J	.	8d#/J	.	16g\	.	.	.	.	8b\	in	.	.
.	.	.	.	16f#\JJ	.	.	.	.	.	.	.	.
=82	=82	=82	=82	=82	=82	=82	=82	=82	=82	=82	=82	=82
!	!	!LO:TX:t=P:problem=mixed beam	!	!LO:TX:t=P:problem=mixed beam	!	!	!	!	!	!	!	!
4E\	.	8B/L	.	16g/LL	.	1ryy	.	.	8ee\L	no-	1ryy	1ryy
.	.	.	.	16gg\	.	.	.	.	.	.	.	.
.	.	8b\	.	16aa\	.	.	.	.	16ff#\L	.	.	.
.	.	.	.	16bb\JJ	.	.	.	.	16gg\JJ	.	.	.
8AA/L	.	8cc\	.	8aa\L	.	.	.	.	8ff#\	-mi-	.	.
!LO:TX:t=P:problem=wysokość nuty niejasna	!	!	!	!	!	!	!	!	!	!	!	!
8AA/J	.	8b\J	.	16gg\L	.	.	.	.	16ee\LL	-ne	.	.
.	.	.	.	16ff#\JJ	.	.	.	.	16dd#X\JJ	.	.	.
.	.	.	.	8qqff#/	.	.	.	.	.	.	.	.
8E\L	.	4b\	.	4gg\	.	.	.	.	8ee\L	no-	.	.
8F#\	.	.	.	.	.	.	.	.	16dd#\L	.	.	.
.	.	.	.	.	.	.	.	.	16cc\JJ	.	.	.
8G\	.	4r	.	4r	.	.	.	.	8b\	-mi-	.	.
8A\J	.	.	.	.	.	.	.	.	8a\	-ne	.	.
=83	=83	=83	=83	=83	=83	=83	=83	=83	=83	=83	=83	=83
4B\	.	1r	.	1r	.	1ryy	.	.	4g;</	Do-	1ryy	1ryy
2.BB;</	.	.	.	.	.	.	.	.	8.f#/	-mi-	.	.
.	.	.	.	.	.	.	.	.	16e/	.	.	.
.	.	.	.	.	.	.	.	.	4e/	-ni	.	.
!	!	!	!	!	!	!	!	!	!LO:TX:b:i:t=Osanna ut\nSupra	!	!	!
.	.	.	.	.	.	.	.	.	4r	.	.	.
=84	=84	=84	=84	=84	=84	=84	=84	=84	=84	=84	=84	=84
!	!	!	!	!	!	!	!	!	!	!	!	!
!LO:TX:t=P:problem=mixed beam	!	!LO:TX:b:i:t=Da Capo\nad finis	!	!LO:TX:a:t=1	!	!	!	!	!	!	!	!
8EE/L	.	2ryy	.	8ee\L	.	1ryy	.	.	1ryy	.	1ryy	1ryy
8E\	.	.	.	8b\J	.	.	.	.	.	.	.	.
!	!	!	!	!	!LO:DY:a:t=fort	!	!	!	!	!	!	!
8D\	.	.	.	16b\LL	f	.	.	.	.	.	.	.
.	.	.	.	16a\	.	.	.	.	.	.	.	.
8BB\J	.	.	.	16g\	.	.	.	.	.	.	.	.
.	.	.	.	16f#\JJ	.	.	.	.	.	.	.	.
8r	.	8ee\Lyy	.	8g/L	.	.	.	.	.	.	.	.
8E\L	.	8b\Jyy	.	8e/J	.	.	.	.	.	.	.	.
8D\	.	16b/LLyy	.	8r	.	.	.	.	.	.	.	.
.	.	16a/yy	.	.	.	.	.	.	.	.	.	.
8BB\J	.	16g/yy	.	8b\	.	.	.	.	.	.	.	.
.	.	16f#/JJyy	.	.	.	.	.	.	.	.	.	.
=85	=85	=85	=85	=85	=85	=85	=85	=85	=85	=85	=85	=85
4E\	.	8g/Lyy	.	8b\L	.	1ryy	.	.	1ryy	.	1ryy	1ryy
.	.	8e/Jyy	.	8gg\J	.	.	.	.	.	.	.	.
4r	.	(y16ee\LLyy	.	(16gg\LL	.	.	.	.	.	.	.	.
.	.	16dd#X\yy	.	16ff#\)	.	.	.	.	.	.	.	.
.	.	16dd#\)yy	.	16ff#\	.	.	.	.	.	.	.	.
.	.	16dd#\JJyy	.	16gg\JJ	.	.	.	.	.	.	.	.
!	!	!	!	!	!	!	!	!	!	!	!	!
4BB/	.	8B/Lyy	.	8B/L	.	.	.	.	.	.	.	.
.	.	8ff#/Jyy	.	8aa\J	.	.	.	.	.	.	.	.
4r	.	16ff#\LLyy	.	16aa\LL	.	.	.	.	.	.	.	.
.	.	(y16ee\yy	.	(16gg\	.	.	.	.	.	.	.	.
.	.	16ee\)yy	.	16gg\)	.	.	.	.	.	.	.	.
.	.	16ff#\JJyy	.	16aa\JJ	.	.	.	.	.	.	.	.
=86	=86	=86	=86	=86	=86	=86	=86	=86	=86	=86	=86	=86
!	!	!	!	!	!	!	!	!	!	!	!	!
8r	.	8gg\Lyy	.	16bb\LL	.	1ryy	.	.	1ryy	.	1ryy	1ryy
.	.	.	.	16gg\JJ	.	.	.	.	.	.	.	.
8E\L	.	8g\yy	.	4ee\	.	.	.	.	.	.	.	.
8G\	.	8b\yy	.	.	.	.	.	.	.	.	.	.
8E\J	.	8g\Jyy	.	(16ff#\LL	.	.	.	.	.	.	.	.
.	.	.	.	16gg\JJ)	.	.	.	.	.	.	.	.
8r	.	8ryy	.	(16ff#\LL	.	.	.	.	.	.	.	.
.	.	.	.	16dd#X\JJ)	.	.	.	.	.	.	.	.
8BB/L	.	8d#X/Lyy	.	4f#/	.	.	.	.	.	.	.	.
8D#X/	.	8f#/yy	.	.	.	.	.	.	.	.	.	.
8BB/J	.	8d#/Jyy	.	(16g/LL	.	.	.	.	.	.	.	.
.	.	.	.	16a/JJ)	.	.	.	.	.	.	.	.
=87	=87	=87	=87	=87	=87	=87	=87	=87	=87	=87	=87	=87
!	!	!	!	!	!	!	!	!	!	!	!	!
8E\L	.	8B/Lyy	.	24g/LL	.	1ryy	.	.	1ryy	.	1ryy	1ryy
.	.	.	.	(24f#/	.	.	.	.	.	.	.	.
.	.	.	.	24e/JJ)	.	.	.	.	.	.	.	.
!LO:TX:t=P:problem=wysokość nuty niejasna	!	!	!	!	!	!	!	!	!	!	!	!
8A\	.	16d/Lyy	.	(<24a/LL	.	.	.	.	.	.	.	.
.	.	.	.	24g/	.	.	.	.	.	.	.	.
.	.	16f#/JJyy	.	.	.	.	.	.	.	.	.	.
.	.	.	.	24f#/JJ)	.	.	.	.	.	.	.	.
!	!	!	!	!LO:TX:t=P:problem=nad trylem łuk	!	!	!	!	!	!	!	!
8B\	.	4d#X/yy	.	4f#t/	.	.	.	.	.	.	.	.
8BB/J	.	.	.	.	.	.	.	.	.	.	.	.
8E\L	.	4e;/yy	.	4e/	.	.	.	.	.	.	.	.
8BB\J	.	.	.	.	.	.	.	.	.	.	.	.
!LO:TX:b:i:t=Osanna ut supra	!	!LO:TX:b:i:t=Osanna ut supra	!	!LO:TX:b:i:t=Osanna \nut ſupra	!	!	!	!	!	!	!	!
4EE/	.	4ryy	.	4r	.	.	.	.	.	.	.	.
==	==	==	==	==	==	==	==	==	==	==	==	==
*-	*-	*-	*-	*-	*-	*-	*-	*-	*-	*-	*-	*-
!!!system-decoration: [(s1,s2)][(s3,s4)][(s5,s6)]s7
!!!RDF**kern: > = above
!!!RDF**kern: < = below
!!!ENC: Mateusz Solarz
!!!END: 2020-12-12
!!!ENC: Jan Barakat
!!!END: 2022-03-25
